;FLAVOR:Marlin
;TIME:1395
;Filament used: 0.561386m
;Layer height: 0.15
;MINX:136.909
;MINY:134.995
;MINZ:0.2
;MAXX:180.657
;MAXY:168.208
;MAXZ:7.75
;Generated with Cura_SteamEngine 4.2.1
M140 S50
M105
M190 S50
M104 S200
M105
M109 S200
M82 ;absolute extrusion mode
M201 X500.00 Y500.00 Z100.00 E5000.00 ;Setup machine max acceleration
M203 X500.00 Y500.00 Z10.00 E50.00 ;Setup machine max feedrate
M204 P500.00 R1000.00 T500.00 ;Setup Print/Retract/Travel acceleration
M205 X8.00 Y8.00 Z0.40 E5.00 ;Setup Jerk
M220 S100 ;Reset Feedrate
M221 S100 ;Reset Flowrate

G28 ;Home
M420 S1 Z2 ;Enable ABL using saved Mesh and Fade Height

G92 E0 ;Reset Extruder
G1 Z2.0 F3000 ;Move Z Axis up
G1 X10.1 Y20 Z0.28 F5000.0 ;Move to start position
G1 X10.1 Y200.0 Z0.28 F1500.0 E15 ;Draw the first line
G1 X10.4 Y200.0 Z0.28 F5000.0 ;Move to side a little
G1 X10.4 Y20 Z0.28 F1500.0 E30 ;Draw the second line
G92 E0 ;Reset Extruder
G1 Z2.0 F3000 ;Move Z Axis up

M141 S28
G92 E0
G92 E0
G1 F2700 E-5
;LAYER_COUNT:50
;LAYER:0
M107
G0 F6000 X139.697 Y135.446 Z0.2
;TYPE:SKIRT
G1 F2700 E0
G1 F1200 X139.826 Y135.317 E0.00667
G1 X140.062 Y135.138 E0.01751
G1 X140.337 Y135.028 E0.02835
G1 X140.604 Y134.995 E0.03819
G1 X159.396 Y134.995 E0.72572
G1 X159.689 Y135.035 E0.73654
G1 X159.961 Y135.151 E0.74736
G1 X160.174 Y135.317 E0.75724
G1 X160.303 Y135.446 E0.76391
G1 X160.482 Y135.682 E0.77475
G1 X160.592 Y135.957 E0.78558
G1 X160.625 Y136.224 E0.79543
G1 X160.625 Y139.776 E0.92538
G1 X160.585 Y140.069 E0.9362
G1 X160.469 Y140.341 E0.94702
G1 X160.303 Y140.554 E0.9569
G1 X160.174 Y140.683 E0.96357
G1 X159.938 Y140.862 E0.97441
G1 X159.663 Y140.972 E0.98525
G1 X159.396 Y141.005 E0.99509
G1 X140.604 Y141.005 E1.68262
G1 X140.311 Y140.965 E1.69343
G1 X140.039 Y140.849 E1.70425
G1 X139.826 Y140.683 E1.71413
G1 X139.697 Y140.554 E1.72081
G1 X139.518 Y140.318 E1.73164
G1 X139.408 Y140.043 E1.74248
G1 X139.375 Y139.776 E1.75232
G1 X139.375 Y136.224 E1.88228
G1 X139.415 Y135.931 E1.8931
G1 X139.531 Y135.659 E1.90392
G1 X139.697 Y135.446 E1.9138
G0 F6000 X140.008 Y135.757
G1 F1200 X140.137 Y135.628 E1.92047
G1 X140.325 Y135.497 E1.92885
G1 X140.604 Y135.435 E1.93931
G1 X159.396 Y135.435 E2.62684
G1 X159.621 Y135.475 E2.6352
G1 X159.863 Y135.628 E2.64567
G1 X159.992 Y135.757 E2.65235
G1 X160.123 Y135.945 E2.66073
G1 X160.185 Y136.224 E2.67119
G1 X160.185 Y139.776 E2.80114
G1 X160.145 Y140.001 E2.8095
G1 X159.992 Y140.243 E2.81998
G1 X159.863 Y140.372 E2.82665
G1 X159.675 Y140.503 E2.83503
G1 X159.396 Y140.565 E2.84549
G1 X140.604 Y140.565 E3.53302
G1 X140.379 Y140.525 E3.54138
G1 X140.137 Y140.372 E3.55185
G1 X140.008 Y140.243 E3.55853
G1 X139.877 Y140.055 E3.56691
G1 X139.815 Y139.776 E3.57737
G1 X139.815 Y136.224 E3.70732
G1 X139.855 Y135.999 E3.71568
G1 X140.008 Y135.757 E3.72616
G0 F6000 X140.319 Y136.068
G1 F1200 X140.448 Y135.939 E3.73283
G1 X140.604 Y135.875 E3.739
G1 X159.396 Y135.875 E4.42653
G1 X159.552 Y135.939 E4.4327
G1 X159.681 Y136.068 E4.43937
G1 X159.745 Y136.224 E4.44554
G1 X159.745 Y139.776 E4.5755
G1 X159.681 Y139.932 E4.58166
G1 X159.552 Y140.061 E4.58834
G1 X159.396 Y140.125 E4.59451
G1 X140.604 Y140.125 E5.28204
G1 X140.448 Y140.061 E5.2882
G1 X140.319 Y139.932 E5.29488
G1 X140.255 Y139.776 E5.30105
G1 X140.255 Y136.224 E5.431
G1 X140.319 Y136.068 E5.43717
G1 F2700 E0.43717
G1 F600 Z0.4
G0 F6000 X140.604 Y146.995 Z0.4
G1 F600 Z0.2
G1 F2700 E5.43717
G1 F1200 X159.396 Y146.995 E6.1247
G1 X159.689 Y147.035 E6.13552
G1 X159.961 Y147.151 E6.14634
G1 X160.174 Y147.317 E6.15622
G1 X160.303 Y147.446 E6.16289
G1 X160.482 Y147.682 E6.17373
G1 X160.592 Y147.957 E6.18456
G1 X160.625 Y148.224 E6.19441
G1 X160.625 Y151.776 E6.32436
G1 X160.585 Y152.069 E6.33518
G1 X160.469 Y152.341 E6.346
G1 X160.303 Y152.554 E6.35588
G1 X160.174 Y152.683 E6.36255
G1 X159.938 Y152.862 E6.37339
G1 X159.663 Y152.972 E6.38423
G1 X159.396 Y153.005 E6.39407
G1 X140.604 Y153.005 E7.0816
G1 X140.311 Y152.965 E7.09241
G1 X140.039 Y152.849 E7.10323
G1 X139.826 Y152.683 E7.11311
G1 X139.697 Y152.554 E7.11979
G1 X139.518 Y152.318 E7.13062
G1 X139.408 Y152.043 E7.14146
G1 X139.375 Y151.776 E7.1513
G1 X139.375 Y148.224 E7.28126
G1 X139.415 Y147.931 E7.29208
G1 X139.531 Y147.659 E7.3029
G1 X139.697 Y147.446 E7.31278
G1 X139.826 Y147.317 E7.31945
G1 X140.062 Y147.138 E7.33029
G1 X140.337 Y147.028 E7.34112
G1 X140.604 Y146.995 E7.35097
G0 F6000 X140.604 Y147.435
G1 F1200 X159.396 Y147.435 E8.03849
G1 X159.621 Y147.475 E8.04685
G1 X159.863 Y147.628 E8.05733
G1 X159.992 Y147.757 E8.064
G1 X160.123 Y147.945 E8.07239
G1 X160.185 Y148.224 E8.08284
G1 X160.185 Y151.776 E8.2128
G1 X160.145 Y152.001 E8.22116
G1 X159.992 Y152.243 E8.23163
G1 X159.863 Y152.372 E8.23831
G1 X159.675 Y152.503 E8.24669
G1 X159.396 Y152.565 E8.25715
G1 X140.604 Y152.565 E8.94467
G1 X140.379 Y152.525 E8.95304
G1 X140.137 Y152.372 E8.96351
G1 X140.008 Y152.243 E8.97018
G1 X139.877 Y152.055 E8.97857
G1 X139.815 Y151.776 E8.98902
G1 X139.815 Y148.224 E9.11898
G1 X139.855 Y147.999 E9.12734
G1 X140.008 Y147.757 E9.13781
G1 X140.137 Y147.628 E9.14449
G1 X140.325 Y147.497 E9.15287
G1 X140.604 Y147.435 E9.16333
G0 F6000 X140.604 Y147.875
G1 F1200 X159.396 Y147.875 E9.85086
G1 X159.552 Y147.939 E9.85703
G1 X159.681 Y148.068 E9.8637
G1 X159.745 Y148.224 E9.86987
G1 X159.745 Y151.776 E9.99982
G1 X159.681 Y151.932 E10.00599
G1 X159.552 Y152.061 E10.01267
G1 X159.396 Y152.125 E10.01884
G1 X140.604 Y152.125 E10.70636
G1 X140.448 Y152.061 E10.71253
G1 X140.319 Y151.932 E10.71921
G1 X140.255 Y151.776 E10.72537
G1 X140.255 Y148.224 E10.85533
G1 X140.319 Y148.068 E10.8615
G1 X140.448 Y147.939 E10.86817
G1 X140.604 Y147.875 E10.87434
G1 F2700 E5.87434
G1 F600 Z0.4
G0 F6000 X138.138 Y160.843 Z0.4
G1 F600 Z0.2
G1 F2700 E10.87434
G1 F1200 X143.595 Y160.843 E11.07399
G1 X143.888 Y160.883 E11.08481
G1 X144.16 Y160.999 E11.09563
G1 X144.373 Y161.165 E11.10551
G1 X144.502 Y161.294 E11.11218
G1 X144.681 Y161.53 E11.12302
G1 X144.791 Y161.805 E11.13386
G1 X144.824 Y162.072 E11.1437
G1 X144.824 Y163.084 E11.18073
G1 X144.784 Y163.377 E11.19154
G1 X144.668 Y163.649 E11.20236
G1 X144.502 Y163.862 E11.21224
G1 X144.373 Y163.991 E11.21892
G1 X144.137 Y164.17 E11.22976
G1 X143.862 Y164.28 E11.24059
G1 X143.595 Y164.313 E11.25043
G1 X142.919 Y164.313 E11.27517
G1 X142.919 Y164.989 E11.2999
G1 X142.879 Y165.282 E11.31072
G1 X142.763 Y165.554 E11.32154
G1 X142.597 Y165.767 E11.33142
G1 X142.468 Y165.896 E11.33809
G1 X142.232 Y166.075 E11.34893
G1 X141.957 Y166.185 E11.35976
G1 X141.69 Y166.218 E11.36961
G1 X140.043 Y166.218 E11.42986
G1 X139.75 Y166.178 E11.44068
G1 X139.478 Y166.062 E11.4515
G1 X139.265 Y165.896 E11.46138
G1 X139.136 Y165.767 E11.46806
G1 X138.957 Y165.531 E11.47889
G1 X138.847 Y165.256 E11.48973
G1 X138.814 Y164.989 E11.49957
G1 X138.814 Y164.313 E11.5243
G1 X138.138 Y164.313 E11.54904
G1 X137.845 Y164.273 E11.55986
G1 X137.573 Y164.157 E11.57067
G1 X137.36 Y163.991 E11.58055
G1 X137.231 Y163.862 E11.58723
G1 X137.052 Y163.626 E11.59807
G1 X136.942 Y163.351 E11.6089
G1 X136.909 Y163.084 E11.61875
G1 X136.909 Y162.072 E11.65577
G1 X136.949 Y161.779 E11.66659
G1 X137.065 Y161.507 E11.67741
G1 X137.231 Y161.294 E11.68729
G1 X137.36 Y161.165 E11.69396
G1 X137.596 Y160.986 E11.7048
G1 X137.871 Y160.876 E11.71564
G1 X138.138 Y160.843 E11.72548
G0 F6000 X138.138 Y161.283
G1 F1200 X143.595 Y161.283 E11.92513
G1 X143.82 Y161.323 E11.93349
G1 X144.062 Y161.476 E11.94397
G1 X144.191 Y161.605 E11.95064
G1 X144.322 Y161.793 E11.95902
G1 X144.384 Y162.072 E11.96948
G1 X144.384 Y163.084 E12.00651
G1 X144.344 Y163.309 E12.01487
G1 X144.191 Y163.551 E12.02534
G1 X144.062 Y163.68 E12.03202
G1 X143.874 Y163.811 E12.0404
G1 X143.595 Y163.873 E12.05086
G1 X142.479 Y163.873 E12.09169
G1 X142.479 Y164.989 E12.13252
G1 X142.439 Y165.214 E12.14088
G1 X142.286 Y165.456 E12.15135
G1 X142.157 Y165.585 E12.15803
G1 X141.969 Y165.716 E12.16641
G1 X141.69 Y165.778 E12.17687
G1 X140.043 Y165.778 E12.23712
G1 X139.818 Y165.738 E12.24548
G1 X139.576 Y165.585 E12.25596
G1 X139.447 Y165.456 E12.26263
G1 X139.316 Y165.268 E12.27102
G1 X139.254 Y164.989 E12.28147
G1 X139.254 Y163.873 E12.3223
G1 X138.138 Y163.873 E12.36313
G1 X137.913 Y163.833 E12.37149
G1 X137.671 Y163.68 E12.38197
G1 X137.542 Y163.551 E12.38864
G1 X137.411 Y163.363 E12.39703
G1 X137.349 Y163.084 E12.40748
G1 X137.349 Y162.072 E12.44451
G1 X137.389 Y161.847 E12.45287
G1 X137.542 Y161.605 E12.46335
G1 X137.671 Y161.476 E12.47002
G1 X137.859 Y161.345 E12.4784
G1 X138.138 Y161.283 E12.48886
G0 F6000 X138.138 Y161.723
G1 F1200 X143.595 Y161.723 E12.68851
G1 X143.751 Y161.787 E12.69468
G1 X143.88 Y161.916 E12.70135
G1 X143.944 Y162.072 E12.70752
G1 X143.944 Y163.084 E12.74455
G1 X143.88 Y163.24 E12.75072
G1 X143.751 Y163.369 E12.75739
G1 X143.595 Y163.433 E12.76356
G1 X142.039 Y163.433 E12.82049
G1 X142.039 Y164.989 E12.87742
G1 X141.975 Y165.145 E12.88359
G1 X141.846 Y165.274 E12.89026
G1 X141.69 Y165.338 E12.89643
G1 X140.043 Y165.338 E12.95669
G1 X139.887 Y165.274 E12.96286
G1 X139.758 Y165.145 E12.96953
G1 X139.694 Y164.989 E12.9757
G1 X139.694 Y163.433 E13.03263
G1 X138.138 Y163.433 E13.08956
G1 X137.982 Y163.369 E13.09573
G1 X137.853 Y163.24 E13.1024
G1 X137.789 Y163.084 E13.10857
G1 X137.789 Y162.072 E13.14559
G1 X137.853 Y161.916 E13.15176
G1 X137.982 Y161.787 E13.15844
G1 X138.138 Y161.723 E13.16461
G1 F2700 E8.16461
G1 F600 Z0.4
G0 F6000 X151.047 Y158.662 Z0.4
G1 F600 Z0.2
G1 F2700 E13.16461
G1 F1200 X151.322 Y158.552 E13.17544
G1 X151.589 Y158.519 E13.18529
G1 X156.411 Y158.519 E13.3617
G1 X156.704 Y158.559 E13.37252
G1 X156.976 Y158.675 E13.38334
G1 X157.189 Y158.841 E13.39322
G1 X157.318 Y158.97 E13.3999
G1 X157.497 Y159.206 E13.41073
G1 X157.607 Y159.481 E13.42157
G1 X157.64 Y159.748 E13.43141
G1 X157.64 Y165.84 E13.6543
G1 X157.6 Y166.133 E13.66511
G1 X157.484 Y166.405 E13.67593
G1 X157.318 Y166.618 E13.68581
G1 X157.189 Y166.747 E13.69249
G1 X156.953 Y166.926 E13.70332
G1 X156.678 Y167.036 E13.71416
G1 X156.411 Y167.069 E13.724
G1 X151.589 Y167.069 E13.90042
G1 X151.296 Y167.029 E13.91124
G1 X151.024 Y166.913 E13.92206
G1 X150.811 Y166.747 E13.93194
G1 X150.682 Y166.618 E13.93861
G1 X150.503 Y166.382 E13.94945
G1 X150.393 Y166.107 E13.96029
G1 X150.36 Y165.84 E13.97013
G1 X150.36 Y159.748 E14.19301
G1 X150.4 Y159.455 E14.20383
G1 X150.516 Y159.183 E14.21465
G1 X150.682 Y158.97 E14.22453
G1 X150.811 Y158.841 E14.23121
G1 X151.047 Y158.662 E14.24204
G0 F6000 X151.31 Y159.021
G1 F1200 X151.589 Y158.959 E14.2525
G1 X156.411 Y158.959 E14.42892
G1 X156.636 Y158.999 E14.43728
G1 X156.878 Y159.152 E14.44775
G1 X157.007 Y159.281 E14.45443
G1 X157.138 Y159.469 E14.46281
G1 X157.2 Y159.748 E14.47327
G1 X157.2 Y165.84 E14.69615
G1 X157.16 Y166.065 E14.70451
G1 X157.007 Y166.307 E14.71499
G1 X156.878 Y166.436 E14.72166
G1 X156.69 Y166.567 E14.73004
G1 X156.411 Y166.629 E14.7405
G1 X151.589 Y166.629 E14.91692
G1 X151.364 Y166.589 E14.92528
G1 X151.122 Y166.436 E14.93576
G1 X150.993 Y166.307 E14.94243
G1 X150.862 Y166.119 E14.95081
G1 X150.8 Y165.84 E14.96127
G1 X150.8 Y159.748 E15.18415
G1 X150.84 Y159.523 E15.19251
G1 X150.993 Y159.281 E15.20299
G1 X151.122 Y159.152 E15.20966
G1 X151.31 Y159.021 E15.21805
G0 F6000 X151.433 Y159.463
G1 F1200 X151.589 Y159.399 E15.22422
G1 X156.411 Y159.399 E15.40063
G1 X156.567 Y159.463 E15.4068
G1 X156.696 Y159.592 E15.41348
G1 X156.76 Y159.748 E15.41965
G1 X156.76 Y165.84 E15.64253
G1 X156.696 Y165.996 E15.6487
G1 X156.567 Y166.125 E15.65537
G1 X156.411 Y166.189 E15.66154
G1 X151.589 Y166.189 E15.83796
G1 X151.433 Y166.125 E15.84413
G1 X151.304 Y165.996 E15.8508
G1 X151.24 Y165.84 E15.85697
G1 X151.24 Y159.748 E16.07986
G1 X151.304 Y159.592 E16.08602
G1 X151.433 Y159.463 E16.0927
G1 F2700 E11.0927
G1 F600 Z0.4
G0 F6000 X164.62 Y158.839 Z0.4
G1 F600 Z0.2
G1 F2700 E16.0927
G1 F1200 X164.749 Y158.71 E16.09937
G1 X164.985 Y158.531 E16.11021
G1 X165.26 Y158.421 E16.12105
G1 X165.527 Y158.388 E16.13089
G1 X176.699 Y158.388 E16.53963
G1 X176.992 Y158.428 E16.55045
G1 X177.264 Y158.544 E16.56127
G1 X177.477 Y158.71 E16.57115
G1 X177.606 Y158.839 E16.57782
G1 X177.785 Y159.075 E16.58866
G1 X177.895 Y159.35 E16.5995
G1 X177.928 Y159.617 E16.60934
G1 X177.928 Y166.979 E16.87869
G1 X177.888 Y167.272 E16.88951
G1 X177.772 Y167.544 E16.90032
G1 X177.606 Y167.757 E16.9102
G1 X177.477 Y167.886 E16.91688
G1 X177.241 Y168.065 E16.92772
G1 X176.966 Y168.175 E16.93855
G1 X176.699 Y168.208 E16.94839
G1 X165.527 Y168.208 E17.35713
G1 X165.234 Y168.168 E17.36795
G1 X164.962 Y168.052 E17.37877
G1 X164.749 Y167.886 E17.38865
G1 X164.62 Y167.757 E17.39533
G1 X164.441 Y167.521 E17.40616
G1 X164.331 Y167.246 E17.417
G1 X164.298 Y166.979 E17.42684
G1 X164.298 Y159.617 E17.69619
G1 X164.338 Y159.324 E17.70701
G1 X164.454 Y159.052 E17.71783
G1 X164.62 Y158.839 E17.72771
G0 F6000 X164.931 Y159.15
G1 F1200 X165.06 Y159.021 E17.73438
G1 X165.248 Y158.89 E17.74277
G1 X165.527 Y158.828 E17.75322
G1 X176.699 Y158.828 E18.16196
G1 X176.924 Y158.868 E18.17032
G1 X177.166 Y159.021 E18.1808
G1 X177.295 Y159.15 E18.18747
G1 X177.426 Y159.338 E18.19586
G1 X177.488 Y159.617 E18.20631
G1 X177.488 Y166.979 E18.47566
G1 X177.448 Y167.204 E18.48402
G1 X177.295 Y167.446 E18.4945
G1 X177.166 Y167.575 E18.50117
G1 X176.978 Y167.706 E18.50955
G1 X176.699 Y167.768 E18.52001
G1 X165.527 Y167.768 E18.92875
G1 X165.302 Y167.728 E18.93711
G1 X165.06 Y167.575 E18.94759
G1 X164.931 Y167.446 E18.95426
G1 X164.8 Y167.258 E18.96264
G1 X164.738 Y166.979 E18.9731
G1 X164.738 Y159.617 E19.24245
G1 X164.778 Y159.392 E19.25081
G1 X164.931 Y159.15 E19.26128
G0 F6000 X165.242 Y159.461
G1 F1200 X165.371 Y159.332 E19.26796
G1 X165.527 Y159.268 E19.27413
G1 X176.699 Y159.268 E19.68287
G1 X176.855 Y159.332 E19.68904
G1 X176.984 Y159.461 E19.69571
G1 X177.048 Y159.617 E19.70188
G1 X177.048 Y166.979 E19.97123
G1 X176.984 Y167.135 E19.9774
G1 X176.855 Y167.264 E19.98407
G1 X176.699 Y167.328 E19.99024
G1 X165.527 Y167.328 E20.39898
G1 X165.371 Y167.264 E20.40515
G1 X165.242 Y167.135 E20.41183
G1 X165.178 Y166.979 E20.41799
G1 X165.178 Y159.617 E20.68734
G1 X165.242 Y159.461 E20.69351
G1 F2700 E15.69351
G1 F600 Z0.4
G0 F6000 X166.225 Y138.898 Z0.4
G1 F600 Z0.2
G1 F2700 E20.69351
G1 F1200 X166.234 Y138.854 E20.69515
G1 X166.325 Y138.56 E20.70641
G1 X166.347 Y138.51 E20.70841
G1 X166.597 Y138.102 E20.72592
G1 X166.632 Y138.059 E20.72795
G1 X166.877 Y137.821 E20.74044
G1 X166.915 Y137.792 E20.74219
G1 X167.188 Y137.624 E20.75392
G1 X167.227 Y137.604 E20.75552
G1 X167.524 Y137.495 E20.7671
G1 X167.566 Y137.485 E20.76868
G1 X167.883 Y137.435 E20.78042
G1 X167.927 Y137.432 E20.78203
G1 X168.248 Y137.447 E20.79379
G1 X168.293 Y137.454 E20.79546
G1 X168.605 Y137.535 E20.80725
G1 X168.646 Y137.55 E20.80885
G1 X168.935 Y137.691 E20.82061
G1 X168.973 Y137.715 E20.82226
G1 X169.228 Y137.912 E20.83405
G1 X169.261 Y137.942 E20.83568
G1 X169.465 Y138.179 E20.84712
G1 X169.489 Y138.215 E20.8487
G1 X169.646 Y138.492 E20.86035
G1 X169.665 Y138.534 E20.86204
G1 X169.762 Y138.84 E20.87378
G1 X169.771 Y138.886 E20.8755
G1 X169.806 Y139.26 E20.88924
G1 X169.807 Y139.28 E20.88997
G1 X169.807 Y150.22 E21.29022
G1 X169.743 Y150.376 E21.29639
G1 X169.614 Y150.505 E21.30307
G1 X169.458 Y150.569 E21.30924
G1 X166.542 Y150.569 E21.41592
G1 X166.386 Y150.505 E21.42209
G1 X166.257 Y150.376 E21.42876
G1 X166.193 Y150.22 E21.43493
G1 X166.193 Y139.239 E21.83669
G1 X166.194 Y139.218 E21.83746
G1 X166.225 Y138.898 E21.84922
G0 F6000 X165.787 Y138.855
G1 F1200 X165.814 Y138.724 E21.85411
G1 X165.905 Y138.43 E21.86537
G1 X165.972 Y138.28 E21.87138
G1 X166.222 Y137.872 E21.88889
G1 X166.325 Y137.744 E21.8949
G1 X166.57 Y137.506 E21.9074
G1 X166.684 Y137.417 E21.91269
G1 X166.957 Y137.249 E21.92442
G1 X167.076 Y137.191 E21.92926
G1 X167.373 Y137.082 E21.94083
G1 X167.497 Y137.05 E21.94552
G1 X167.814 Y137 E21.95726
G1 X167.948 Y136.993 E21.96217
G1 X168.269 Y137.008 E21.97393
G1 X168.404 Y137.028 E21.97892
G1 X168.716 Y137.109 E21.99071
G1 X168.839 Y137.155 E21.99552
G1 X169.128 Y137.296 E22.00728
G1 X169.242 Y137.367 E22.0122
G1 X169.497 Y137.564 E22.02398
