;FLAVOR:Marlin
;TIME:20677
;Filament used: 11.7007m
;Layer height: 0.15
;MINX:58.73
;MINY:80.106
;MINZ:0.2
;MAXX:172.13
;MAXY:168.524
;MAXZ:26.05
;Generated with Cura_SteamEngine 4.2.1
M140 S50
M105
M190 S50
M104 S200
M105
M109 S200
M82 ;absolute extrusion mode
M201 X500.00 Y500.00 Z100.00 E5000.00 ;Setup machine max acceleration
M203 X500.00 Y500.00 Z10.00 E50.00 ;Setup machine max feedrate
M204 P500.00 R1000.00 T500.00 ;Setup Print/Retract/Travel acceleration
M205 X8.00 Y8.00 Z0.40 E5.00 ;Setup Jerk
M220 S100 ;Reset Feedrate
M221 S100 ;Reset Flowrate

G28 ;Home
M420 S1 Z2 ;Enable ABL using saved Mesh and Fade Height

G92 E0 ;Reset Extruder
G1 Z2.0 F3000 ;Move Z Axis up
G1 X10.1 Y20 Z0.28 F5000.0 ;Move to start position
G1 X10.1 Y200.0 Z0.28 F1500.0 E15 ;Draw the first line
G1 X10.4 Y200.0 Z0.28 F5000.0 ;Move to side a little
G1 X10.4 Y20 Z0.28 F1500.0 E30 ;Draw the second line
G92 E0 ;Reset Extruder
G1 Z2.0 F3000 ;Move Z Axis up

M141 S28
G92 E0
G92 E0
G1 F2700 E-5
;LAYER_COUNT:172
;LAYER:0
M107
G0 F6000 X59.762 Y80.249 Z0.2
;TYPE:SKIRT
G1 F2700 E0
G1 F1200 X60.037 Y80.139 E0.01084
G1 X60.304 Y80.106 E0.02068
G1 X124.816 Y80.106 E2.38092
G1 X125.109 Y80.146 E2.39174
G1 X125.381 Y80.262 E2.40256
G1 X125.612 Y80.447 E2.41339
G1 X125.786 Y80.687 E2.42424
G1 X125.889 Y80.964 E2.43505
G1 X125.916 Y81.195 E2.44356
G1 X126.045 Y94.02 E2.9128
G1 X126.008 Y94.314 E2.92364
G1 X125.894 Y94.587 E2.93446
G1 X125.723 Y94.809 E2.94472
G1 X125.594 Y94.938 E2.95139
G1 X125.358 Y95.117 E2.96223
G1 X125.083 Y95.227 E2.97306
G1 X124.816 Y95.26 E2.98291
G1 X60.304 Y95.26 E5.34315
G1 X60.011 Y95.22 E5.35397
G1 X59.739 Y95.104 E5.36479
G1 X59.526 Y94.938 E5.37467
G1 X59.397 Y94.809 E5.38134
G1 X59.218 Y94.573 E5.39218
G1 X59.108 Y94.298 E5.40302
G1 X59.075 Y94.031 E5.41286
G1 X59.075 Y81.335 E5.87736
G1 X59.115 Y81.042 E5.88818
G1 X59.231 Y80.77 E5.899
G1 X59.397 Y80.557 E5.90888
G1 X59.526 Y80.428 E5.91555
G1 X59.762 Y80.249 E5.92639
G0 F6000 X60.025 Y80.608
G1 F1200 X60.304 Y80.546 E5.93684
G1 X124.816 Y80.546 E8.29709
G1 X125.041 Y80.586 E8.30545
G1 X125.24 Y80.7 E8.31384
G1 X125.387 Y80.875 E8.3222
G1 X125.476 Y81.199 E8.3345
G1 X125.605 Y94.024 E8.80374
G1 X125.568 Y94.25 E8.81211
G1 X125.412 Y94.498 E8.82283
G1 X125.283 Y94.627 E8.82951
G1 X125.095 Y94.758 E8.83789
G1 X124.816 Y94.82 E8.84835
G1 X60.304 Y94.82 E11.20859
G1 X60.079 Y94.78 E11.21696
G1 X59.837 Y94.627 E11.22743
G1 X59.708 Y94.498 E11.2341
G1 X59.577 Y94.31 E11.24249
G1 X59.515 Y94.031 E11.25294
G1 X59.515 Y81.335 E11.71744
G1 X59.555 Y81.11 E11.7258
G1 X59.708 Y80.868 E11.73628
G1 X59.837 Y80.739 E11.74295
G1 X60.025 Y80.608 E11.75134
G0 F6000 X60.148 Y81.05
G1 F1200 X60.304 Y80.986 E11.75751
G1 X124.816 Y80.986 E14.11775
G1 X124.941 Y81.025 E14.12254
G1 X125.022 Y81.128 E14.12734
G1 X125.036 Y81.204 E14.13016
G1 X125.165 Y94.029 E14.5994
G1 X125.101 Y94.187 E14.60564
G1 X124.972 Y94.316 E14.61232
G1 X124.816 Y94.38 E14.61848
G1 X60.304 Y94.38 E16.97873
G1 X60.148 Y94.316 E16.9849
G1 X60.019 Y94.187 E16.99157
G1 X59.955 Y94.031 E16.99774
G1 X59.955 Y81.335 E17.46224
G1 X60.019 Y81.179 E17.46841
G1 X60.148 Y81.05 E17.47508
G1 F2700 E12.47508
G1 F600 Z0.4
G0 F6000 X59.959 Y109.827 Z0.4
G1 F600 Z0.2
G1 F2700 E17.47508
G1 F1200 X124.471 Y109.827 E19.83533
G1 X124.764 Y109.867 E19.84615
G1 X125.036 Y109.983 E19.85697
G1 X125.267 Y110.168 E19.8678
G1 X125.441 Y110.408 E19.87864
G1 X125.544 Y110.685 E19.88945
G1 X125.571 Y110.916 E19.89796
G1 X125.7 Y123.741 E20.3672
G1 X125.663 Y124.035 E20.37804
G1 X125.549 Y124.308 E20.38887
G1 X125.378 Y124.53 E20.39912
G1 X125.249 Y124.659 E20.40579
G1 X125.013 Y124.838 E20.41663
G1 X124.738 Y124.948 E20.42747
G1 X124.471 Y124.981 E20.43731
G1 X59.959 Y124.981 E22.79756
G1 X59.666 Y124.941 E22.80838
G1 X59.394 Y124.825 E22.81919
G1 X59.181 Y124.659 E22.82907
G1 X59.052 Y124.53 E22.83575
G1 X58.873 Y124.294 E22.84659
G1 X58.763 Y124.019 E22.85742
G1 X58.73 Y123.752 E22.86726
G1 X58.73 Y111.056 E23.33176
G1 X58.77 Y110.763 E23.34258
G1 X58.886 Y110.491 E23.3534
G1 X59.052 Y110.278 E23.36328
G1 X59.181 Y110.149 E23.36995
G1 X59.417 Y109.97 E23.38079
G1 X59.692 Y109.86 E23.39163
G1 X59.959 Y109.827 E23.40147
G0 F6000 X59.959 Y110.267
G1 F1200 X124.471 Y110.267 E25.76172
G1 X124.696 Y110.307 E25.77008
G1 X124.895 Y110.421 E25.77847
G1 X125.042 Y110.596 E25.78683
G1 X125.131 Y110.92 E25.79912
G1 X125.26 Y123.745 E26.26836
G1 X125.223 Y123.971 E26.27674
G1 X125.067 Y124.219 E26.28746
G1 X124.938 Y124.348 E26.29414
G1 X124.75 Y124.479 E26.30252
G1 X124.471 Y124.541 E26.31298
G1 X59.959 Y124.541 E28.67322
G1 X59.734 Y124.501 E28.68158
G1 X59.492 Y124.348 E28.69206
G1 X59.363 Y124.219 E28.69873
G1 X59.232 Y124.031 E28.70712
G1 X59.17 Y123.752 E28.71757
G1 X59.17 Y111.056 E29.18207
G1 X59.21 Y110.831 E29.19043
G1 X59.363 Y110.589 E29.20091
G1 X59.492 Y110.46 E29.20758
G1 X59.68 Y110.329 E29.21596
G1 X59.959 Y110.267 E29.22642
G0 F6000 X59.959 Y110.707
G1 F1200 X124.471 Y110.707 E31.58667
G1 X124.596 Y110.746 E31.59146
G1 X124.677 Y110.849 E31.59625
G1 X124.691 Y110.925 E31.59908
G1 X124.82 Y123.75 E32.06832
G1 X124.756 Y123.908 E32.07456
G1 X124.627 Y124.037 E32.08123
G1 X124.471 Y124.101 E32.0874
G1 X59.959 Y124.101 E34.44764
G1 X59.803 Y124.037 E34.45381
G1 X59.674 Y123.908 E34.46049
G1 X59.61 Y123.752 E34.46666
G1 X59.61 Y111.056 E34.93116
G1 X59.674 Y110.9 E34.93732
G1 X59.803 Y110.771 E34.944
G1 X59.959 Y110.707 E34.95017
G1 F2700 E29.95017
G1 F600 Z0.4
G0 F6000 X63.493 Y136.194 Z0.4
G1 F600 Z0.2
G1 F2700 E34.95017
G1 F1200 X102.097 Y136.194 E36.36254
G1 X102.39 Y136.234 E36.37336
G1 X102.662 Y136.35 E36.38418
G1 X102.875 Y136.516 E36.39406
G1 X103.004 Y136.645 E36.40073
G1 X103.183 Y136.881 E36.41157
G1 X103.293 Y137.156 E36.42241
G1 X103.326 Y137.423 E36.43225
G1 X103.326 Y163.073 E37.37068
G1 X103.286 Y163.366 E37.3815
G1 X103.17 Y163.638 E37.39232
G1 X103.004 Y163.851 E37.4022
G1 X102.875 Y163.98 E37.40888
G1 X102.639 Y164.159 E37.41971
G1 X102.364 Y164.269 E37.43055
G1 X102.097 Y164.302 E37.44039
G1 X63.493 Y164.302 E38.85276
G1 X63.2 Y164.262 E38.86358
G1 X62.928 Y164.146 E38.8744
G1 X62.715 Y163.98 E38.88428
G1 X62.586 Y163.851 E38.89096
G1 X62.407 Y163.615 E38.90179
G1 X62.297 Y163.34 E38.91263
G1 X62.264 Y163.073 E38.92247
G1 X62.264 Y137.423 E39.86091
G1 X62.304 Y137.13 E39.87172
G1 X62.42 Y136.858 E39.88254
G1 X62.586 Y136.645 E39.89242
G1 X62.715 Y136.516 E39.8991
G1 X62.951 Y136.337 E39.90994
G1 X63.226 Y136.227 E39.92077
G1 X63.493 Y136.194 E39.93061
G0 F6000 X63.493 Y136.634
G1 F1200 X102.097 Y136.634 E41.34299
G1 X102.322 Y136.674 E41.35135
G1 X102.564 Y136.827 E41.36182
G1 X102.693 Y136.956 E41.3685
G1 X102.824 Y137.144 E41.37688
G1 X102.886 Y137.423 E41.38734
G1 X102.886 Y163.073 E42.32577
G1 X102.846 Y163.298 E42.33413
G1 X102.693 Y163.54 E42.34461
G1 X102.564 Y163.669 E42.35128
G1 X102.376 Y163.8 E42.35966
G1 X102.097 Y163.862 E42.37012
G1 X63.493 Y163.862 E43.78249
G1 X63.268 Y163.822 E43.79085
G1 X63.026 Y163.669 E43.80133
G1 X62.897 Y163.54 E43.808
G1 X62.766 Y163.352 E43.81639
G1 X62.704 Y163.073 E43.82684
G1 X62.704 Y137.423 E44.76528
G1 X62.744 Y137.198 E44.77364
G1 X62.897 Y136.956 E44.78411
G1 X63.026 Y136.827 E44.79079
G1 X63.214 Y136.696 E44.79917
G1 X63.493 Y136.634 E44.80963
G0 F6000 X63.493 Y137.074
G1 F1200 X102.097 Y137.074 E46.222
G1 X102.253 Y137.138 E46.22817
G1 X102.382 Y137.267 E46.23484
G1 X102.446 Y137.423 E46.24101
G1 X102.446 Y163.073 E47.17945
G1 X102.382 Y163.229 E47.18562
G1 X102.253 Y163.358 E47.19229
G1 X102.097 Y163.422 E47.19846
G1 X63.493 Y163.422 E48.61083
G1 X63.337 Y163.358 E48.617
G1 X63.208 Y163.229 E48.62368
G1 X63.144 Y163.073 E48.62984
G1 X63.144 Y137.423 E49.56828
G1 X63.208 Y137.267 E49.57445
G1 X63.337 Y137.138 E49.58112
G1 X63.493 Y137.074 E49.58729
G1 F2700 E44.58729
G1 F600 Z0.4
G0 F6000 X122.379 Y143.937 Z0.4
G1 F600 Z0.2
G1 F2700 E49.58729
G1 F1200 X122.615 Y143.758 E49.59813
G1 X122.89 Y143.648 E49.60896
G1 X123.157 Y143.615 E49.61881
G1 X126.608 Y143.615 E49.74507
G1 X126.61 Y140.687 E49.85219
G1 X126.65 Y140.394 E49.86301
G1 X126.734 Y140.181 E49.87139
G1 X126.788 Y140.077 E49.87567
G1 X126.958 Y139.835 E49.88649
G1 X127.262 Y139.605 E49.90044
G1 X127.566 Y139.449 E49.91294
G1 X127.976 Y139.332 E49.92854
G1 X128.274 Y139.307 E49.93948
G1 X128.548 Y139.208 E49.95014
G1 X128.837 Y139.145 E49.96096
G1 X129.087 Y139.154 E49.97012
G1 X129.687 Y139.245 E49.99232
G1 X129.703 Y139.248 E49.99291
G1 X129.953 Y139.29 E50.00219
G1 X130.994 Y139.331 E50.0403
G1 X131.286 Y139.382 E50.05115
G1 X131.462 Y139.456 E50.05813
G1 X131.752 Y139.608 E50.07011
G1 X131.993 Y139.779 E50.08092
G1 X132.176 Y140.003 E50.09151
G1 X132.236 Y140.1 E50.09568
G1 X132.357 Y140.371 E50.10654
G1 X132.401 Y140.679 E50.11792
G1 X132.401 Y143.615 E50.22534
G1 X135.853 Y143.615 E50.35163
G1 X136.146 Y143.655 E50.36245
G1 X136.418 Y143.771 E50.37327
G1 X136.631 Y143.937 E50.38315
G1 X136.76 Y144.066 E50.38983
G1 X136.939 Y144.302 E50.40066
G1 X137.049 Y144.577 E50.4115
G1 X137.082 Y144.844 E50.42134
G1 X137.082 Y148.904 E50.56988
G1 X137.042 Y149.197 E50.5807
G1 X136.926 Y149.469 E50.59152
G1 X136.76 Y149.682 E50.6014
G1 X136.631 Y149.811 E50.60807
G1 X136.395 Y149.99 E50.61891
G1 X136.12 Y150.1 E50.62975
G1 X135.853 Y150.133 E50.63959
G1 X123.157 Y150.133 E51.10409
G1 X122.864 Y150.093 E51.11491
G1 X122.592 Y149.977 E51.12573
G1 X122.379 Y149.811 E51.13561
G1 X122.25 Y149.682 E51.14228
G1 X122.071 Y149.446 E51.15312
G1 X121.961 Y149.171 E51.16395
G1 X121.928 Y148.904 E51.1738
G1 X121.928 Y144.844 E51.32234
G1 X121.968 Y144.551 E51.33315
G1 X122.084 Y144.279 E51.34397
G1 X122.25 Y144.066 E51.35385
G1 X122.379 Y143.937 E51.36053
G0 F6000 X122.69 Y144.248
G1 F1200 X122.878 Y144.117 E51.36891
G1 X123.157 Y144.055 E51.37937
G1 X127.096 Y144.055 E51.52348
G1 X127.058 Y143.951 E51.52753
G1 X127.048 Y143.835 E51.53179
G1 X127.05 Y140.688 E51.64693
G1 X127.124 Y140.384 E51.65838
G1 X127.178 Y140.28 E51.66266
G1 X127.317 Y140.098 E51.67104
G1 X127.463 Y139.997 E51.67754
G1 X127.767 Y139.841 E51.69004
G1 X128.013 Y139.77 E51.6994
G1 X128.368 Y139.74 E51.71244
G1 X128.698 Y139.621 E51.72527
G1 X129.021 Y139.589 E51.73715
G1 X129.621 Y139.68 E51.75935
G1 X129.631 Y139.682 E51.75972
G1 X129.911 Y139.729 E51.77011
G1 X130.977 Y139.771 E51.80914
G1 X131.257 Y139.845 E51.81974
G1 X131.547 Y139.997 E51.83172
G1 X131.729 Y140.137 E51.84012
G1 X131.802 Y140.235 E51.84459
G1 X131.862 Y140.332 E51.84876
G1 X131.947 Y140.544 E51.85712
G1 X131.961 Y140.679 E51.86208
G1 X131.961 Y143.835 E51.97755
G1 X131.922 Y144.055 E51.98573
G1 X135.853 Y144.055 E52.12955
G1 X136.078 Y144.095 E52.13791
G1 X136.32 Y144.248 E52.14838
G1 X136.449 Y144.377 E52.15506
G1 X136.58 Y144.565 E52.16344
G1 X136.642 Y144.844 E52.1739
G1 X136.642 Y148.904 E52.32244
G1 X136.602 Y149.129 E52.3308
G1 X136.449 Y149.371 E52.34127
G1 X136.32 Y149.5 E52.34795
G1 X136.132 Y149.631 E52.35633
G1 X135.853 Y149.693 E52.36679
G1 X123.157 Y149.693 E52.83128
G1 X122.932 Y149.653 E52.83964
G1 X122.69 Y149.5 E52.85012
G1 X122.561 Y149.371 E52.85679
G1 X122.43 Y149.183 E52.86518
G1 X122.368 Y148.904 E52.87563
G1 X122.368 Y144.844 E53.02417
G1 X122.408 Y144.619 E53.03253
G1 X122.561 Y144.377 E53.04301
G1 X122.69 Y144.248 E53.04968
G0 F6000 X123.001 Y144.559
G1 F1200 X123.157 Y144.495 E53.05585
G1 X135.853 Y144.495 E53.52035
G1 X136.009 Y144.559 E53.52652
G1 X136.138 Y144.688 E53.53319
G1 X136.202 Y144.844 E53.53936
G1 X136.202 Y148.904 E53.6879
G1 X136.138 Y149.06 E53.69407
G1 X136.009 Y149.189 E53.70075
G1 X135.853 Y149.253 E53.70692
G1 X123.157 Y149.253 E54.17141
G1 X123.001 Y149.189 E54.17758
G1 X122.872 Y149.06 E54.18426
G1 X122.808 Y148.904 E54.19043
G1 X122.808 Y144.844 E54.33897
G1 X122.872 Y144.688 E54.34514
G1 X123.001 Y144.559 E54.35181
G1 F2700 E49.35181
G1 F600 Z0.4
G0 F6000 X127.569 Y140.483 Z0.4
G1 F600 Z0.2
G1 F2700 E54.35181
G1 F1200 X127.664 Y140.388 E54.35673
G1 X127.968 Y140.232 E54.36923
G1 X128.05 Y140.209 E54.37234
G1 X128.461 Y140.175 E54.38743
G1 X128.847 Y140.035 E54.40245
G1 X128.955 Y140.024 E54.40642
G1 X129.555 Y140.115 E54.42863
G1 X129.558 Y140.116 E54.42874
G1 X129.86 Y140.166 E54.43994
G1 X130.96 Y140.21 E54.48022
G1 X131.053 Y140.235 E54.48374
G1 X131.343 Y140.387 E54.49572
G1 X131.428 Y140.466 E54.49997
G1 X131.488 Y140.563 E54.50414
G1 X131.521 Y140.679 E54.50855
G1 X131.521 Y143.835 E54.62402
G1 X131.482 Y143.96 E54.62881
G1 X131.379 Y144.041 E54.6336
G1 X131.301 Y144.055 E54.6365
G1 X127.708 Y144.055 E54.76796
G1 X127.583 Y144.016 E54.77275
G1 X127.502 Y143.913 E54.77754
G1 X127.488 Y143.835 E54.78044
G1 X127.49 Y140.688 E54.89558
G1 X127.515 Y140.587 E54.89938
G1 X127.569 Y140.483 E54.90367
G0 F6000 X127.93 Y140.744
G1 F1200 X128.011 Y140.699 E54.90706
G1 X128.126 Y140.644 E54.91173
G1 X128.529 Y140.61 E54.92652
G1 X128.586 Y140.598 E54.92865
G1 X128.944 Y140.468 E54.94259
G1 X129.489 Y140.551 E54.96276
G1 X129.802 Y140.603 E54.97437
G1 X129.829 Y140.606 E54.97536
G1 X130.893 Y140.648 E55.01432
G1 X131.081 Y140.747 E55.02209
G1 X131.081 Y143.615 E55.12702
G1 X127.928 Y143.615 E55.24238
G1 X127.93 Y140.744 E55.34741
G0 F6000 X128.37 Y141.065
G1 F1200 X128.566 Y141.049 E55.35461
G1 X128.736 Y141.011 E55.36098
G1 X128.987 Y140.92 E55.37075
G1 X129.423 Y140.986 E55.38688
G1 X129.729 Y141.037 E55.39823
G1 X129.812 Y141.045 E55.40128
G1 X130.641 Y141.078 E55.43164
G1 X130.641 Y143.175 E55.50836
G1 X128.368 Y143.175 E55.59152
G1 X128.37 Y141.065 E55.66872
G0 F6000 X128.81 Y141.442
G1 F1200 X128.886 Y141.425 E55.67157
G1 X129.033 Y141.372 E55.67728
G1 X129.357 Y141.421 E55.68927
G1 X129.656 Y141.471 E55.70036
G1 X129.795 Y141.485 E55.70547
G1 X130.201 Y141.501 E55.72034
G1 X130.201 Y142.735 E55.76549
G1 X128.809 Y142.735 E55.81641
G1 X128.81 Y141.442 E55.86372
G0 F6000 X129.249 Y141.85
G1 F1200 X129.291 Y141.856 E55.86527
G1 X129.583 Y141.905 E55.87611
G1 X129.761 Y141.923 E55.88265
G1 X129.761 Y142.295 E55.89626
G1 X129.249 Y142.295 E55.91499
G1 X129.249 Y141.85 E55.93127
G1 F2700 E50.93127
G1 F600 Z0.4
G0 F6000 X127.923 Y152.946 Z0.4
G1 F600 Z0.2
G1 F2700 E55.93127
G1 F1200 X128.212 Y152.688 E55.94545
G1 X128.546 Y152.484 E55.95977
G1 X128.901 Y152.346 E55.9737
G1 X129.193 Y152.276 E55.98469
G1 X129.388 Y152.257 E55.99186
G1 X129.776 Y152.289 E56.0061
G1 X130.328 Y152.435 E56.02699
G1 X130.688 Y152.604 E56.04154
G1 X130.851 Y152.721 E56.04888
G1 X131.064 Y152.921 E56.05957
G1 X131.307 Y153.22 E56.07367
G1 X131.497 Y153.567 E56.08814
G1 X131.617 Y153.928 E56.10206
G1 X131.672 Y154.315 E56.11636
G1 X131.658 Y154.703 E56.13056
G1 X131.575 Y155.085 E56.14487
G1 X131.429 Y155.436 E56.15877
G1 X131.28 Y155.691 E56.16958
G1 X131.155 Y155.851 E56.17701
G1 X130.937 Y156.062 E56.18811
G1 X130.632 Y156.285 E56.20193
G1 X130.288 Y156.454 E56.21595
G1 X129.917 Y156.561 E56.23008
G1 X129.523 Y156.6 E56.24457
G1 X129.14 Y156.569 E56.25862
G1 X128.761 Y156.468 E56.27297
G1 X128.41 Y156.303 E56.28716
G1 X128.088 Y156.073 E56.30164
G1 X127.818 Y155.794 E56.31585
G1 X127.601 Y155.472 E56.33005
G1 X127.45 Y155.129 E56.34376
G1 X127.368 Y154.839 E56.35479
G1 X127.34 Y154.64 E56.36214
G1 X127.338 Y154.348 E56.37283
G1 X127.387 Y153.963 E56.38702
G1 X127.507 Y153.586 E56.4015
G1 X127.685 Y153.251 E56.41538
G1 X127.923 Y152.946 E56.42953
G0 F6000 X128.216 Y153.275
G1 F1200 X128.505 Y153.017 E56.44371
G1 X128.706 Y152.894 E56.45233
G1 X129.061 Y152.756 E56.46626
G1 X129.236 Y152.714 E56.47285
G1 X129.431 Y152.695 E56.48002
G1 X129.664 Y152.714 E56.48857
G1 X130.216 Y152.86 E56.50946
G1 X130.432 Y152.962 E56.5182
G1 X130.595 Y153.079 E56.52554
G1 X130.722 Y153.199 E56.53193
G1 X130.965 Y153.498 E56.54603
G1 X131.079 Y153.706 E56.55471
G1 X131.199 Y154.067 E56.56862
G1 X131.233 Y154.299 E56.5772
G1 X131.219 Y154.687 E56.59141
G1 X131.168 Y154.916 E56.59999
G1 X131.022 Y155.267 E56.6139
G1 X130.933 Y155.42 E56.62037
G1 X130.808 Y155.58 E56.6278
G1 X130.678 Y155.707 E56.63445
G1 X130.373 Y155.93 E56.64828
G1 X130.166 Y156.031 E56.6567
G1 X129.795 Y156.138 E56.67083
G1 X129.559 Y156.162 E56.67951
G1 X129.176 Y156.131 E56.69357
