;FLAVOR:Marlin
;TIME:15811
;Filament used: 11.7749m
;Layer height: 0.2
;MINX:61.384
;MINY:102.606
;MINZ:0.2
;MAXX:223.011
;MAXY:172.389
;MAXZ:26
;Generated with Cura_SteamEngine 4.2.1
M140 S50
M105
M190 S50
M104 S200
M105
M109 S200
M82 ;absolute extrusion mode
M201 X500.00 Y500.00 Z100.00 E5000.00 ;Setup machine max acceleration
M203 X500.00 Y500.00 Z10.00 E50.00 ;Setup machine max feedrate
M204 P500.00 R1000.00 T500.00 ;Setup Print/Retract/Travel acceleration
M205 X8.00 Y8.00 Z0.40 E5.00 ;Setup Jerk
M220 S100 ;Reset Feedrate
M221 S100 ;Reset Flowrate

G28 ;Home
M420 S1 Z2 ;Enable ABL using saved Mesh and Fade Height

G92 E0 ;Reset Extruder
G1 Z2.0 F3000 ;Move Z Axis up
G1 X10.1 Y20 Z0.28 F5000.0 ;Move to start position
G1 X10.1 Y200.0 Z0.28 F1500.0 E15 ;Draw the first line
G1 X10.4 Y200.0 Z0.28 F5000.0 ;Move to side a little
G1 X10.4 Y20 Z0.28 F1500.0 E30 ;Draw the second line
G92 E0 ;Reset Extruder
G1 Z2.0 F3000 ;Move Z Axis up

M141 S28
G92 E0
G92 E0
G1 F2700 E-5
;LAYER_COUNT:129
;LAYER:0
M107
G0 F6000 X123.278 Y115.917 Z0.2
;TYPE:SKIRT
G1 F2700 E0
G1 F1200 X123.42 Y115.767 E0.00756
G1 X123.819 Y115.388 E0.02769
G1 X123.972 Y115.257 E0.03506
G1 X124.399 Y114.927 E0.0548
G1 X124.557 Y114.817 E0.06185
G1 X125.027 Y114.522 E0.08215
G1 X125.206 Y114.422 E0.08965
G1 X125.692 Y114.183 E0.10947
G1 X125.876 Y114.104 E0.11679
G1 X126.387 Y113.914 E0.13674
G1 X126.579 Y113.854 E0.1441
G1 X127.114 Y113.715 E0.16432
G1 X127.31 Y113.674 E0.17165
G1 X127.841 Y113.592 E0.1913
G1 X128.046 Y113.571 E0.19884
G1 X128.656 Y113.541 E0.22119
G1 X128.753 Y113.539 E0.22474
G1 X166.354 Y113.539 E1.60041
G1 X166.749 Y113.579 E1.61494
G1 X167.129 Y113.697 E1.6295
G1 X167.477 Y113.889 E1.64404
G1 X167.754 Y114.119 E1.65721
G1 X167.883 Y114.248 E1.66388
G1 X168.135 Y114.556 E1.67844
G1 X168.319 Y114.908 E1.69298
G1 X168.43 Y115.289 E1.7075
G1 X168.463 Y115.648 E1.72068
G1 X168.463 Y126.185 E2.10619
G1 X168.423 Y126.58 E2.12072
G1 X168.305 Y126.96 E2.13528
G1 X168.113 Y127.308 E2.14982
G1 X167.883 Y127.585 E2.16299
G1 X167.754 Y127.714 E2.16966
G1 X167.446 Y127.966 E2.18422
G1 X167.094 Y128.15 E2.19876
G1 X166.713 Y128.261 E2.21327
G1 X166.354 Y128.294 E2.22646
G1 X128.704 Y128.294 E3.60393
G1 X128.604 Y128.291 E3.60759
G1 X128.053 Y128.263 E3.62778
G1 X127.86 Y128.244 E3.63487
G1 X127.339 Y128.166 E3.65415
G1 X127.141 Y128.126 E3.66154
G1 X126.606 Y127.989 E3.68174
G1 X126.41 Y127.928 E3.68925
G1 X125.907 Y127.742 E3.70887
G1 X125.73 Y127.666 E3.71592
G1 X125.227 Y127.422 E3.73637
G1 X125.044 Y127.322 E3.744
G1 X124.58 Y127.033 E3.764
G1 X124.419 Y126.921 E3.77118
G1 X123.993 Y126.593 E3.79085
G1 X123.84 Y126.462 E3.79822
G1 X123.432 Y126.076 E3.81877
G1 X123.294 Y125.931 E3.82609
G1 X122.936 Y125.516 E3.84614
G1 X122.814 Y125.36 E3.85339
G1 X122.501 Y124.914 E3.87332
G1 X122.39 Y124.737 E3.88097
G1 X122.125 Y124.259 E3.90096
G1 X122.038 Y124.082 E3.90818
G1 X121.822 Y123.58 E3.92817
G1 X121.751 Y123.388 E3.93566
G1 X121.589 Y122.87 E3.95552
G1 X121.54 Y122.679 E3.96273
G1 X121.428 Y122.136 E3.98302
G1 X121.398 Y121.94 E3.99027
G1 X121.342 Y121.399 E4.01017
G1 X121.331 Y121.199 E4.0175
G1 X121.33 Y120.655 E4.0374
G1 X121.34 Y120.448 E4.04499
G1 X121.396 Y119.906 E4.06492
G1 X121.426 Y119.712 E4.0721
G1 X121.537 Y119.169 E4.09238
G1 X121.585 Y118.983 E4.09941
G1 X121.745 Y118.464 E4.11928
G1 X121.817 Y118.267 E4.12695
G1 X122.032 Y117.765 E4.14693
G1 X122.12 Y117.585 E4.15426
G1 X122.386 Y117.105 E4.17434
G1 X122.493 Y116.933 E4.18175
G1 X122.803 Y116.488 E4.20159
G1 X122.922 Y116.334 E4.20871
G1 X123.278 Y115.917 E4.22877
G0 F6000 X123.613 Y116.203
G1 F1200 X123.723 Y116.086 E4.23465
G1 X124.122 Y115.707 E4.25478
G1 X124.241 Y115.605 E4.26052
G1 X124.668 Y115.275 E4.28026
G1 X124.791 Y115.19 E4.28573
G1 X125.261 Y114.895 E4.30603
G1 X125.4 Y114.817 E4.31186
G1 X125.886 Y114.578 E4.33168
G1 X126.029 Y114.517 E4.33737
G1 X126.54 Y114.327 E4.35731
G1 X126.69 Y114.279 E4.36307
G1 X127.225 Y114.14 E4.3833
G1 X127.377 Y114.109 E4.38897
G1 X127.908 Y114.027 E4.40863
G1 X128.067 Y114.011 E4.41448
G1 X128.677 Y113.981 E4.43682
G1 X128.753 Y113.979 E4.4396
G1 X166.354 Y113.979 E5.81528
G1 X166.702 Y114.019 E5.82809
G1 X167.032 Y114.136 E5.8409
G1 X167.443 Y114.43 E5.85939
G1 X167.572 Y114.559 E5.86607
G1 X167.79 Y114.833 E5.87888
G1 X167.94 Y115.15 E5.89171
G1 X168.023 Y115.648 E5.91018
G1 X168.023 Y126.185 E6.29569
G1 X167.983 Y126.533 E6.3085
G1 X167.866 Y126.863 E6.32131
G1 X167.572 Y127.274 E6.3398
G1 X167.443 Y127.403 E6.34648
G1 X167.169 Y127.621 E6.35929
G1 X166.852 Y127.771 E6.37212
G1 X166.354 Y127.854 E6.39059
G1 X128.704 Y127.854 E7.76806
G1 X128.626 Y127.852 E7.77091
G1 X128.075 Y127.824 E7.7911
G1 X127.925 Y127.809 E7.79661
G1 X127.404 Y127.731 E7.81589
G1 X127.25 Y127.7 E7.82163
G1 X126.715 Y127.563 E7.84184
G1 X126.563 Y127.515 E7.84767
G1 X126.06 Y127.329 E7.86729
G1 X125.922 Y127.271 E7.87277
G1 X125.419 Y127.027 E7.89322
G1 X125.277 Y126.948 E7.89917
G1 X124.813 Y126.659 E7.91917
G1 X124.687 Y126.572 E7.92477
G1 X124.261 Y126.244 E7.94444
G1 X124.143 Y126.143 E7.95012
G1 X123.735 Y125.757 E7.97067
G1 X123.627 Y125.644 E7.97639
G1 X123.269 Y125.229 E7.99644
G1 X123.174 Y125.108 E8.00207
G1 X122.861 Y124.662 E8.022
G1 X122.775 Y124.524 E8.02795
G1 X122.51 Y124.046 E8.04795
G1 X122.442 Y123.908 E8.05358
G1 X122.226 Y123.406 E8.07357
G1 X122.171 Y123.257 E8.07938
G1 X122.009 Y122.739 E8.09924
G1 X121.971 Y122.59 E8.10486
G1 X121.859 Y122.047 E8.12515
G1 X121.835 Y121.895 E8.13078
G1 X121.779 Y121.354 E8.15068
G1 X121.771 Y121.198 E8.15639
G1 X121.77 Y120.654 E8.1763
G1 X121.778 Y120.493 E8.18219
G1 X121.834 Y119.951 E8.20213
G1 X121.857 Y119.801 E8.20768
G1 X121.968 Y119.258 E8.22796
G1 X122.005 Y119.112 E8.23347
G1 X122.165 Y118.593 E8.25334
G1 X122.221 Y118.441 E8.25926
G1 X122.436 Y117.939 E8.27924
G1 X122.505 Y117.799 E8.28495
G1 X122.771 Y117.319 E8.30503
G1 X122.854 Y117.185 E8.3108
G1 X123.164 Y116.74 E8.33064
G1 X123.257 Y116.62 E8.3362
G1 X123.613 Y116.203 E8.35626
G0 F6000 X123.947 Y116.489
G1 F1200 X124.026 Y116.405 E8.36047
G1 X124.425 Y116.026 E8.38061
G1 X124.51 Y115.954 E8.38468
G1 X124.937 Y115.624 E8.40443
G1 X125.025 Y115.562 E8.40837
G1 X125.495 Y115.267 E8.42867
G1 X125.595 Y115.212 E8.43284
G1 X126.081 Y114.973 E8.45266
G1 X126.183 Y114.929 E8.45672
G1 X126.694 Y114.739 E8.47667
G1 X126.8 Y114.705 E8.48074
G1 X127.335 Y114.566 E8.50096
G1 X127.444 Y114.544 E8.50503
G1 X127.975 Y114.462 E8.52469
G1 X128.089 Y114.45 E8.52888
G1 X128.699 Y114.42 E8.55123
G1 X128.753 Y114.419 E8.5532
G1 X166.354 Y114.419 E9.92888
G1 X166.647 Y114.459 E9.9397
G1 X166.919 Y114.575 E9.95052
G1 X167.132 Y114.741 E9.9604
G1 X167.261 Y114.87 E9.96707
G1 X167.44 Y115.106 E9.97791
G1 X167.55 Y115.381 E9.98875
G1 X167.583 Y115.648 E9.99859
G1 X167.583 Y126.185 E10.3841
G1 X167.543 Y126.478 E10.39492
G1 X167.427 Y126.75 E10.40573
G1 X167.261 Y126.963 E10.41561
G1 X167.132 Y127.092 E10.42229
G1 X166.896 Y127.271 E10.43313
G1 X166.621 Y127.381 E10.44396
G1 X166.354 Y127.414 E10.45381
G1 X128.704 Y127.414 E11.83127
G1 X128.648 Y127.413 E11.83332
G1 X128.097 Y127.385 E11.85351
G1 X127.99 Y127.374 E11.85744
G1 X127.469 Y127.296 E11.87672
G1 X127.359 Y127.274 E11.88082
G1 X126.824 Y127.137 E11.90103
G1 X126.715 Y127.103 E11.9052
G1 X126.212 Y126.917 E11.92482
G1 X126.114 Y126.875 E11.92873
G1 X125.611 Y126.631 E11.94918
G1 X125.509 Y126.575 E11.95344
G1 X125.045 Y126.286 E11.97344
G1 X124.956 Y126.224 E11.9774
G1 X124.53 Y125.896 E11.99707
G1 X124.445 Y125.823 E12.00117
G1 X124.037 Y125.437 E12.02172
G1 X123.96 Y125.357 E12.02579
G1 X123.602 Y124.942 E12.04584
G1 X123.535 Y124.855 E12.04985
G1 X123.222 Y124.409 E12.06979
G1 X123.16 Y124.31 E12.07406
G1 X122.895 Y123.832 E12.09406
G1 X122.847 Y123.734 E12.09805
G1 X122.631 Y123.232 E12.11805
G1 X122.591 Y123.125 E12.12222
G1 X122.429 Y122.607 E12.14208
G1 X122.402 Y122.501 E12.14608
G1 X122.29 Y121.958 E12.16637
G1 X122.273 Y121.849 E12.1704
G1 X122.217 Y121.308 E12.1903
G1 X122.211 Y121.197 E12.19437
G1 X122.21 Y120.653 E12.21427
G1 X122.216 Y120.538 E12.21849
G1 X122.272 Y119.996 E12.23842
G1 X122.288 Y119.889 E12.24238
G1 X122.399 Y119.346 E12.26266
G1 X122.426 Y119.242 E12.26659
G1 X122.586 Y118.723 E12.28646
G1 X122.626 Y118.614 E12.29071
G1 X122.841 Y118.112 E12.31069
G1 X122.89 Y118.012 E12.31476
G1 X123.156 Y117.532 E12.33484
G1 X123.215 Y117.436 E12.33896
G1 X123.525 Y116.991 E12.3588
G1 X123.591 Y116.906 E12.36274
G1 X123.947 Y116.489 E12.3828
G0 F6000 X124.282 Y116.774
G1 F1200 X124.329 Y116.724 E12.38531
G1 X124.728 Y116.345 E12.40544
G1 X124.779 Y116.302 E12.40788
G1 X125.206 Y115.972 E12.42763
G1 X125.259 Y115.935 E12.42999
G1 X125.729 Y115.64 E12.45029
G1 X125.789 Y115.607 E12.4528
G1 X126.275 Y115.368 E12.47261
G1 X126.336 Y115.341 E12.47506
G1 X126.847 Y115.151 E12.495
G1 X126.911 Y115.131 E12.49745
G1 X127.446 Y114.992 E12.51768
G1 X127.511 Y114.979 E12.5201
G1 X128.042 Y114.897 E12.53976
G1 X128.111 Y114.89 E12.5423
G1 X128.721 Y114.86 E12.56464
G1 X128.753 Y114.859 E12.56581
G1 X166.354 Y114.859 E13.94149
G1 X166.579 Y114.899 E13.94985
G1 X166.821 Y115.052 E13.96033
G1 X166.95 Y115.181 E13.967
G1 X167.081 Y115.369 E13.97538
G1 X167.143 Y115.648 E13.98584
G1 X167.143 Y126.185 E14.37135
G1 X167.103 Y126.41 E14.37971
G1 X166.95 Y126.652 E14.39018
G1 X166.821 Y126.781 E14.39686
G1 X166.633 Y126.912 E14.40524
G1 X166.354 Y126.974 E14.4157
G1 X128.704 Y126.974 E15.79317
G1 X128.671 Y126.973 E15.79438
G1 X128.12 Y126.945 E15.81456
G1 X128.055 Y126.939 E15.81695
G1 X127.534 Y126.861 E15.83622
G1 X127.468 Y126.847 E15.83869
G1 X126.933 Y126.71 E15.8589
G1 X126.868 Y126.69 E15.86138
G1 X126.365 Y126.504 E15.881
G1 X126.306 Y126.479 E15.88335
G1 X125.803 Y126.235 E15.9038
G1 X125.742 Y126.201 E15.90636
G1 X125.278 Y125.912 E15.92636
G1 X125.224 Y125.875 E15.92875
G1 X124.798 Y125.547 E15.94842
G1 X124.747 Y125.503 E15.95089
G1 X124.339 Y125.117 E15.97144
G1 X124.293 Y125.069 E15.97387
G1 X123.935 Y124.654 E15.99392
G1 X123.895 Y124.602 E15.99632
G1 X123.582 Y124.156 E16.01625
G1 X123.545 Y124.097 E16.0188
G1 X123.28 Y123.619 E16.0388
G1 X123.251 Y123.56 E16.0412
G1 X123.035 Y123.058 E16.0612
G1 X123.011 Y122.994 E16.0637
G1 X122.849 Y122.476 E16.08356
G1 X122.833 Y122.412 E16.08597
G1 X122.721 Y121.869 E16.10625
G1 X122.711 Y121.804 E16.10866
G1 X122.655 Y121.263 E16.12856
G1 X122.651 Y121.196 E16.13101
G1 X122.65 Y120.652 E16.15092
G1 X122.653 Y120.583 E16.15344
G1 X122.709 Y120.041 E16.17338
G1 X122.719 Y119.977 E16.17575
G1 X122.83 Y119.434 E16.19603
G1 X122.846 Y119.372 E16.19837
G1 X123.006 Y118.853 E16.21824
G1 X123.03 Y118.787 E16.22081
G1 X123.245 Y118.285 E16.24079
G1 X123.275 Y118.225 E16.24324
G1 X123.541 Y117.745 E16.26332
G1 X123.576 Y117.688 E16.26577
G1 X123.886 Y117.243 E16.28561
G1 X123.926 Y117.191 E16.28801
G1 X124.282 Y116.774 E16.30807
G0 F6000 X124.617 Y117.06
G1 F1200 X124.632 Y117.043 E16.3089
G1 X125.031 Y116.664 E16.32903
G1 X125.048 Y116.65 E16.32984
G1 X125.475 Y116.32 E16.34958
G1 X125.493 Y116.308 E16.35037
G1 X125.963 Y116.013 E16.37068
G1 X125.983 Y116.002 E16.37151
G1 X126.469 Y115.763 E16.39133
G1 X126.489 Y115.754 E16.39213
G1 X127 Y115.564 E16.41207
G1 X127.022 Y115.557 E16.41292
G1 X127.557 Y115.418 E16.43314
G1 X127.578 Y115.414 E16.43392
G1 X128.109 Y115.332 E16.45358
G1 X128.132 Y115.329 E16.45443
G1 X128.742 Y115.299 E16.47677
G1 X166.354 Y115.299 E17.85285
G1 X166.51 Y115.363 E17.85902
G1 X166.639 Y115.492 E17.8657
G1 X166.703 Y115.648 E17.87187
G1 X166.703 Y126.185 E18.25737
G1 X166.639 Y126.341 E18.26354
G1 X166.51 Y126.47 E18.27022
G1 X166.354 Y126.534 E18.27639
G1 X128.693 Y126.534 E19.65426
G1 X128.142 Y126.506 E19.67444
G1 X128.12 Y126.504 E19.67525
G1 X127.599 Y126.426 E19.69452
G1 X127.577 Y126.421 E19.69535
G1 X127.042 Y126.284 E19.71556
G1 X127.021 Y126.277 E19.71637
G1 X126.518 Y126.091 E19.73599
G1 X126.498 Y126.083 E19.73677
G1 X125.995 Y125.839 E19.75723
G1 X125.975 Y125.828 E19.75806
G1 X125.511 Y125.539 E19.77806
G1 X125.493 Y125.526 E19.77887
G1 X125.067 Y125.198 E19.79854
G1 X125.05 Y125.184 E19.79935
G1 X124.642 Y124.798 E19.8199
G1 X124.626 Y124.782 E19.82073
G1 X124.268 Y124.367 E19.84078
G1 X124.255 Y124.349 E19.84159
G1 X123.942 Y123.903 E19.86153
G1 X123.93 Y123.884 E19.86235
G1 X123.665 Y123.406 E19.88234
G1 X123.655 Y123.386 E19.88316
G1 X123.439 Y122.884 E19.90316
G1 X123.431 Y122.863 E19.90398
G1 X123.269 Y122.345 E19.92384
G1 X123.264 Y122.323 E19.92466
G1 X123.152 Y121.78 E19.94495
G1 X123.148 Y121.759 E19.94573
G1 X123.092 Y121.218 E19.96563
G1 X123.091 Y121.195 E19.96647
G1 X123.09 Y120.651 E19.98637
G1 X123.091 Y120.628 E19.98721
G1 X123.147 Y120.086 E20.00715
G1 X123.15 Y120.065 E20.00793
G1 X123.261 Y119.522 E20.0282
G1 X123.267 Y119.501 E20.029
G1 X123.427 Y118.982 E20.04887
G1 X123.435 Y118.96 E20.04973
G1 X123.65 Y118.458 E20.06971
G1 X123.66 Y118.438 E20.07053
G1 X123.926 Y117.958 E20.0906
G1 X123.937 Y117.939 E20.09141
G1 X124.247 Y117.494 E20.11125
G1 X124.261 Y117.477 E20.11205
G1 X124.617 Y117.06 E20.13211
G1 F2700 E15.13211
G1 F600 Z0.4
G0 F6000 X111.151 Y113.76 Z0.4
G1 F600 Z0.2
G1 F2700 E20.13211
G1 F1200 X111.151 Y124.297 E20.51762
G1 X111.111 Y124.692 E20.53215
G1 X110.993 Y125.072 E20.54671
G1 X110.801 Y125.42 E20.56125
G1 X110.571 Y125.697 E20.57442
G1 X110.442 Y125.826 E20.58109
G1 X110.134 Y126.078 E20.59565
G1 X109.782 Y126.262 E20.61019
G1 X109.401 Y126.373 E20.6247
G1 X109.042 Y126.406 E20.63789
G1 X71.392 Y126.406 E22.01536
G1 X71.292 Y126.403 E22.01902
G1 X70.741 Y126.375 E22.03921
G1 X70.548 Y126.356 E22.0463
G1 X70.027 Y126.278 E22.06558
G1 X69.829 Y126.238 E22.07297
G1 X69.294 Y126.101 E22.09317
G1 X69.098 Y126.04 E22.10068
G1 X68.595 Y125.854 E22.1203
G1 X68.418 Y125.778 E22.12735
G1 X67.915 Y125.534 E22.1478
G1 X67.732 Y125.434 E22.15543
G1 X67.268 Y125.145 E22.17543
G1 X67.107 Y125.033 E22.18261
G1 X66.681 Y124.705 E22.20228
G1 X66.528 Y124.574 E22.20965
G1 X66.119 Y124.187 E22.23025
G1 X65.982 Y124.044 E22.23749
G1 X65.624 Y123.63 E22.25752
G1 X65.5 Y123.47 E22.26492
G1 X65.188 Y123.024 E22.28484
G1 X65.078 Y122.849 E22.2924
G1 X64.813 Y122.371 E22.3124
G1 X64.726 Y122.194 E22.31961
G1 X64.51 Y121.692 E22.33961
G1 X64.439 Y121.5 E22.3471
G1 X64.277 Y120.982 E22.36695
G1 X64.228 Y120.791 E22.37417
G1 X64.116 Y120.248 E22.39445
G1 X64.086 Y120.052 E22.40171
G1 X64.03 Y119.511 E22.42161
G1 X64.019 Y119.311 E22.42893
G1 X64.018 Y118.767 E22.44884
G1 X64.028 Y118.561 E22.45638
G1 X64.085 Y118.005 E22.47683
G1 X64.116 Y117.809 E22.48409
G1 X64.222 Y117.293 E22.50336
G1 X64.269 Y117.108 E22.51035
G1 X64.433 Y116.576 E22.53071
G1 X64.505 Y116.379 E22.53839
G1 X64.72 Y115.877 E22.55837
G1 X64.808 Y115.697 E22.5657
G1 X65.074 Y115.217 E22.58578
G1 X65.181 Y115.045 E22.59319
G1 X65.491 Y114.6 E22.61303
G1 X65.61 Y114.446 E22.62015
G1 X65.966 Y114.029 E22.64021
G1 X66.108 Y113.879 E22.64777
G1 X66.507 Y113.5 E22.6679
G1 X66.661 Y113.369 E22.6753
G1 X67.083 Y113.043 E22.69481
G1 X67.239 Y112.934 E22.70177
G1 X67.711 Y112.637 E22.72217
G1 X67.892 Y112.536 E22.72976
G1 X68.389 Y112.292 E22.75001
G1 X68.572 Y112.213 E22.7573
G1 X69.075 Y112.026 E22.77694
G1 X69.267 Y111.966 E22.7843
G1 X69.802 Y111.827 E22.80452
G1 X69.998 Y111.786 E22.81185
G1 X70.529 Y111.704 E22.8315
G1 X70.734 Y111.683 E22.83904
G1 X71.344 Y111.653 E22.86139
G1 X71.441 Y111.651 E22.86494
G1 X109.042 Y111.651 E24.24061
G1 X109.437 Y111.691 E24.25514
G1 X109.817 Y111.809 E24.2697
G1 X110.165 Y112.001 E24.28424
G1 X110.442 Y112.231 E24.29741
G1 X110.571 Y112.36 E24.30409
G1 X110.823 Y112.668 E24.31864
G1 X111.007 Y113.02 E24.33318
G1 X111.118 Y113.401 E24.3477
G1 X111.151 Y113.76 E24.36089
G0 F6000 X110.711 Y113.76
G1 F1200 X110.711 Y124.297 E24.74639
G1 X110.671 Y124.645 E24.75921
G1 X110.554 Y124.975 E24.77202
G1 X110.26 Y125.386 E24.79051
G1 X110.131 Y125.515 E24.79718
G1 X109.857 Y125.733 E24.80999
G1 X109.54 Y125.883 E24.82282
G1 X109.042 Y125.966 E24.84129
G1 X71.392 Y125.966 E26.21876
G1 X71.314 Y125.964 E26.22162
G1 X70.763 Y125.936 E26.2418
G1 X70.613 Y125.921 E26.24732
G1 X70.092 Y125.843 E26.26659
