;FLAVOR:Marlin
;TIME:15816
;Filament used: 11.7661m
;Layer height: 0.2
;MINX:58.73
;MINY:80.106
;MINZ:0.2
;MAXX:172.13
;MAXY:168.524
;MAXZ:26
;Generated with Cura_SteamEngine 4.2.1
M140 S50
M105
M190 S50
M104 S200
M105
M109 S200
M82 ;absolute extrusion mode
M201 X500.00 Y500.00 Z100.00 E5000.00 ;Setup machine max acceleration
M203 X500.00 Y500.00 Z10.00 E50.00 ;Setup machine max feedrate
M204 P500.00 R1000.00 T500.00 ;Setup Print/Retract/Travel acceleration
M205 X8.00 Y8.00 Z0.40 E5.00 ;Setup Jerk
M220 S100 ;Reset Feedrate
M221 S100 ;Reset Flowrate

G28 ;Home
M420 S1 Z2 ;Enable ABL using saved Mesh and Fade Height

G92 E0 ;Reset Extruder
G1 Z2.0 F3000 ;Move Z Axis up
G1 X10.1 Y20 Z0.28 F5000.0 ;Move to start position
G1 X10.1 Y200.0 Z0.28 F1500.0 E15 ;Draw the first line
G1 X10.4 Y200.0 Z0.28 F5000.0 ;Move to side a little
G1 X10.4 Y20 Z0.28 F1500.0 E30 ;Draw the second line
G92 E0 ;Reset Extruder
G1 Z2.0 F3000 ;Move Z Axis up

M141 S28
G92 E0
G92 E0
G1 F2700 E-5
;LAYER_COUNT:129
;LAYER:0
M107
G0 F6000 X59.762 Y80.249 Z0.2
;TYPE:SKIRT
G1 F2700 E0
G1 F1200 X60.037 Y80.139 E0.01084
G1 X60.304 Y80.106 E0.02068
G1 X124.816 Y80.106 E2.38092
G1 X125.109 Y80.146 E2.39174
G1 X125.381 Y80.262 E2.40256
G1 X125.612 Y80.447 E2.41339
G1 X125.786 Y80.687 E2.42424
G1 X125.889 Y80.964 E2.43505
G1 X125.916 Y81.195 E2.44356
G1 X126.045 Y94.02 E2.9128
G1 X126.008 Y94.314 E2.92364
G1 X125.894 Y94.587 E2.93446
G1 X125.723 Y94.809 E2.94472
G1 X125.594 Y94.938 E2.95139
G1 X125.358 Y95.117 E2.96223
G1 X125.083 Y95.227 E2.97306
G1 X124.816 Y95.26 E2.98291
G1 X60.304 Y95.26 E5.34315
G1 X60.011 Y95.22 E5.35397
G1 X59.739 Y95.104 E5.36479
G1 X59.526 Y94.938 E5.37467
G1 X59.397 Y94.809 E5.38134
G1 X59.218 Y94.573 E5.39218
G1 X59.108 Y94.298 E5.40302
G1 X59.075 Y94.031 E5.41286
G1 X59.075 Y81.335 E5.87736
G1 X59.115 Y81.042 E5.88818
G1 X59.231 Y80.77 E5.899
G1 X59.397 Y80.557 E5.90888
G1 X59.526 Y80.428 E5.91555
G1 X59.762 Y80.249 E5.92639
G0 F6000 X60.025 Y80.608
G1 F1200 X60.304 Y80.546 E5.93684
G1 X124.816 Y80.546 E8.29709
G1 X125.041 Y80.586 E8.30545
G1 X125.24 Y80.7 E8.31384
G1 X125.387 Y80.875 E8.3222
G1 X125.476 Y81.199 E8.3345
G1 X125.605 Y94.024 E8.80374
G1 X125.568 Y94.25 E8.81211
G1 X125.412 Y94.498 E8.82283
G1 X125.283 Y94.627 E8.82951
G1 X125.095 Y94.758 E8.83789
G1 X124.816 Y94.82 E8.84835
G1 X60.304 Y94.82 E11.20859
G1 X60.079 Y94.78 E11.21696
G1 X59.837 Y94.627 E11.22743
G1 X59.708 Y94.498 E11.2341
G1 X59.577 Y94.31 E11.24249
G1 X59.515 Y94.031 E11.25294
G1 X59.515 Y81.335 E11.71744
G1 X59.555 Y81.11 E11.7258
G1 X59.708 Y80.868 E11.73628
G1 X59.837 Y80.739 E11.74295
G1 X60.025 Y80.608 E11.75134
G0 F6000 X60.148 Y81.05
G1 F1200 X60.304 Y80.986 E11.75751
G1 X124.816 Y80.986 E14.11775
G1 X124.941 Y81.025 E14.12254
G1 X125.022 Y81.128 E14.12734
G1 X125.036 Y81.204 E14.13016
G1 X125.165 Y94.029 E14.5994
G1 X125.101 Y94.187 E14.60564
G1 X124.972 Y94.316 E14.61232
G1 X124.816 Y94.38 E14.61848
G1 X60.304 Y94.38 E16.97873
G1 X60.148 Y94.316 E16.9849
G1 X60.019 Y94.187 E16.99157
G1 X59.955 Y94.031 E16.99774
G1 X59.955 Y81.335 E17.46224
G1 X60.019 Y81.179 E17.46841
G1 X60.148 Y81.05 E17.47508
G1 F2700 E12.47508
G1 F600 Z0.4
G0 F6000 X59.959 Y109.827 Z0.4
G1 F600 Z0.2
G1 F2700 E17.47508
G1 F1200 X124.471 Y109.827 E19.83533
G1 X124.764 Y109.867 E19.84615
G1 X125.036 Y109.983 E19.85697
G1 X125.267 Y110.168 E19.8678
G1 X125.441 Y110.408 E19.87864
G1 X125.544 Y110.685 E19.88945
G1 X125.571 Y110.916 E19.89796
G1 X125.7 Y123.741 E20.3672
G1 X125.663 Y124.035 E20.37804
G1 X125.549 Y124.308 E20.38887
G1 X125.378 Y124.53 E20.39912
G1 X125.249 Y124.659 E20.40579
G1 X125.013 Y124.838 E20.41663
G1 X124.738 Y124.948 E20.42747
G1 X124.471 Y124.981 E20.43731
G1 X59.959 Y124.981 E22.79756
G1 X59.666 Y124.941 E22.80838
G1 X59.394 Y124.825 E22.81919
G1 X59.181 Y124.659 E22.82907
G1 X59.052 Y124.53 E22.83575
G1 X58.873 Y124.294 E22.84659
G1 X58.763 Y124.019 E22.85742
G1 X58.73 Y123.752 E22.86726
G1 X58.73 Y111.056 E23.33176
G1 X58.77 Y110.763 E23.34258
G1 X58.886 Y110.491 E23.3534
G1 X59.052 Y110.278 E23.36328
G1 X59.181 Y110.149 E23.36995
G1 X59.417 Y109.97 E23.38079
G1 X59.692 Y109.86 E23.39163
G1 X59.959 Y109.827 E23.40147
G0 F6000 X59.959 Y110.267
G1 F1200 X124.471 Y110.267 E25.76172
G1 X124.696 Y110.307 E25.77008
G1 X124.895 Y110.421 E25.77847
G1 X125.042 Y110.596 E25.78683
G1 X125.131 Y110.92 E25.79912
G1 X125.26 Y123.745 E26.26836
G1 X125.223 Y123.971 E26.27674
G1 X125.067 Y124.219 E26.28746
G1 X124.938 Y124.348 E26.29414
G1 X124.75 Y124.479 E26.30252
G1 X124.471 Y124.541 E26.31298
G1 X59.959 Y124.541 E28.67322
G1 X59.734 Y124.501 E28.68158
G1 X59.492 Y124.348 E28.69206
G1 X59.363 Y124.219 E28.69873
G1 X59.232 Y124.031 E28.70712
G1 X59.17 Y123.752 E28.71757
G1 X59.17 Y111.056 E29.18207
G1 X59.21 Y110.831 E29.19043
G1 X59.363 Y110.589 E29.20091
G1 X59.492 Y110.46 E29.20758
G1 X59.68 Y110.329 E29.21596
G1 X59.959 Y110.267 E29.22642
G0 F6000 X59.959 Y110.707
G1 F1200 X124.471 Y110.707 E31.58667
G1 X124.596 Y110.746 E31.59146
G1 X124.677 Y110.849 E31.59625
G1 X124.691 Y110.925 E31.59908
G1 X124.82 Y123.75 E32.06832
G1 X124.756 Y123.908 E32.07456
G1 X124.627 Y124.037 E32.08123
G1 X124.471 Y124.101 E32.0874
G1 X59.959 Y124.101 E34.44764
G1 X59.803 Y124.037 E34.45381
G1 X59.674 Y123.908 E34.46049
G1 X59.61 Y123.752 E34.46666
G1 X59.61 Y111.056 E34.93116
G1 X59.674 Y110.9 E34.93732
G1 X59.803 Y110.771 E34.944
G1 X59.959 Y110.707 E34.95017
G1 F2700 E29.95017
G1 F600 Z0.4
G0 F6000 X63.493 Y136.194 Z0.4
G1 F600 Z0.2
G1 F2700 E34.95017
G1 F1200 X102.097 Y136.194 E36.36254
G1 X102.39 Y136.234 E36.37336
G1 X102.662 Y136.35 E36.38418
G1 X102.875 Y136.516 E36.39406
G1 X103.004 Y136.645 E36.40073
G1 X103.183 Y136.881 E36.41157
G1 X103.293 Y137.156 E36.42241
G1 X103.326 Y137.423 E36.43225
G1 X103.326 Y163.073 E37.37068
G1 X103.286 Y163.366 E37.3815
G1 X103.17 Y163.638 E37.39232
G1 X103.004 Y163.851 E37.4022
G1 X102.875 Y163.98 E37.40888
G1 X102.639 Y164.159 E37.41971
G1 X102.364 Y164.269 E37.43055
G1 X102.097 Y164.302 E37.44039
G1 X63.493 Y164.302 E38.85276
G1 X63.2 Y164.262 E38.86358
G1 X62.928 Y164.146 E38.8744
G1 X62.715 Y163.98 E38.88428
G1 X62.586 Y163.851 E38.89096
G1 X62.407 Y163.615 E38.90179
G1 X62.297 Y163.34 E38.91263
G1 X62.264 Y163.073 E38.92247
G1 X62.264 Y137.423 E39.86091
G1 X62.304 Y137.13 E39.87172
G1 X62.42 Y136.858 E39.88254
G1 X62.586 Y136.645 E39.89242
G1 X62.715 Y136.516 E39.8991
G1 X62.951 Y136.337 E39.90994
G1 X63.226 Y136.227 E39.92077
G1 X63.493 Y136.194 E39.93061
G0 F6000 X63.493 Y136.634
G1 F1200 X102.097 Y136.634 E41.34299
G1 X102.322 Y136.674 E41.35135
G1 X102.564 Y136.827 E41.36182
G1 X102.693 Y136.956 E41.3685
G1 X102.824 Y137.144 E41.37688
G1 X102.886 Y137.423 E41.38734
G1 X102.886 Y163.073 E42.32577
G1 X102.846 Y163.298 E42.33413
G1 X102.693 Y163.54 E42.34461
G1 X102.564 Y163.669 E42.35128
G1 X102.376 Y163.8 E42.35966
G1 X102.097 Y163.862 E42.37012
G1 X63.493 Y163.862 E43.78249
G1 X63.268 Y163.822 E43.79085
G1 X63.026 Y163.669 E43.80133
G1 X62.897 Y163.54 E43.808
G1 X62.766 Y163.352 E43.81639
G1 X62.704 Y163.073 E43.82684
G1 X62.704 Y137.423 E44.76528
G1 X62.744 Y137.198 E44.77364
G1 X62.897 Y136.956 E44.78411
G1 X63.026 Y136.827 E44.79079
G1 X63.214 Y136.696 E44.79917
G1 X63.493 Y136.634 E44.80963
G0 F6000 X63.493 Y137.074
G1 F1200 X102.097 Y137.074 E46.222
G1 X102.253 Y137.138 E46.22817
G1 X102.382 Y137.267 E46.23484
G1 X102.446 Y137.423 E46.24101
G1 X102.446 Y163.073 E47.17945
G1 X102.382 Y163.229 E47.18562
G1 X102.253 Y163.358 E47.19229
G1 X102.097 Y163.422 E47.19846
G1 X63.493 Y163.422 E48.61083
G1 X63.337 Y163.358 E48.617
G1 X63.208 Y163.229 E48.62368
G1 X63.144 Y163.073 E48.62984
G1 X63.144 Y137.423 E49.56828
G1 X63.208 Y137.267 E49.57445
G1 X63.337 Y137.138 E49.58112
G1 X63.493 Y137.074 E49.58729
G1 F2700 E44.58729
G1 F600 Z0.4
G0 F6000 X122.379 Y143.937 Z0.4
G1 F600 Z0.2
G1 F2700 E49.58729
G1 F1200 X122.615 Y143.758 E49.59813
G1 X122.89 Y143.648 E49.60896
G1 X123.157 Y143.615 E49.61881
G1 X126.247 Y143.615 E49.73186
G1 X126.249 Y140.679 E49.83928
G1 X126.289 Y140.386 E49.8501
G1 X126.387 Y140.146 E49.85958
G1 X126.442 Y140.047 E49.86372
G1 X126.62 Y139.81 E49.87457
G1 X126.815 Y139.652 E49.88375
G1 X127.102 Y139.47 E49.89618
G1 X127.371 Y139.347 E49.907
G1 X127.605 Y139.302 E49.91572
G1 X128.443 Y139.236 E49.94648
G1 X128.738 Y139.253 E49.95729
G1 X129.018 Y139.348 E49.96811
G1 X129.263 Y139.514 E49.97893
G1 X129.412 Y139.678 E49.98704
G1 X129.491 Y139.785 E49.99191
G1 X129.593 Y139.658 E49.99787
G1 X129.807 Y139.454 E50.00868
G1 X130.068 Y139.314 E50.01952
G1 X130.357 Y139.249 E50.03036
G1 X130.514 Y139.247 E50.0361
G1 X131.377 Y139.296 E50.06772
G1 X131.668 Y139.352 E50.07857
G1 X131.908 Y139.468 E50.08832
G1 X132.2 Y139.655 E50.10101
G1 X132.426 Y139.846 E50.11183
G1 X132.551 Y140.017 E50.11958
G1 X132.606 Y140.109 E50.1235
G1 X132.722 Y140.381 E50.13432
G1 X132.762 Y140.674 E50.14514
G1 X132.76 Y143.615 E50.25274
G1 X135.853 Y143.615 E50.3659
G1 X136.146 Y143.655 E50.37672
G1 X136.418 Y143.771 E50.38754
G1 X136.631 Y143.937 E50.39742
G1 X136.76 Y144.066 E50.40409
G1 X136.939 Y144.302 E50.41493
G1 X137.049 Y144.577 E50.42577
G1 X137.082 Y144.844 E50.43561
G1 X137.082 Y148.904 E50.58415
G1 X137.042 Y149.197 E50.59497
G1 X136.955 Y149.401 E50.60308
G1 X137.055 Y149.671 E50.61362
G1 X137.082 Y149.913 E50.62252
G1 X137.082 Y155.381 E50.82258
G1 X137.042 Y155.674 E50.8334
G1 X136.926 Y155.946 E50.84422
G1 X136.76 Y156.159 E50.8541
G1 X136.631 Y156.288 E50.86077
G1 X136.395 Y156.467 E50.87161
G1 X136.12 Y156.577 E50.88244
G1 X135.853 Y156.61 E50.89229
G1 X131.142 Y156.61 E51.06464
G1 X130.849 Y156.57 E51.07546
G1 X130.577 Y156.454 E51.08628
G1 X130.467 Y156.366 E51.09144
G1 X130.288 Y156.454 E51.09873
G1 X129.917 Y156.561 E51.11286
G1 X129.523 Y156.6 E51.12734
G1 X129.14 Y156.569 E51.1414
G1 X128.761 Y156.468 E51.15575
G1 X128.548 Y156.368 E51.16436
G1 X128.347 Y156.5 E51.17316
G1 X128.066 Y156.592 E51.18398
G1 X127.868 Y156.61 E51.19125
G1 X123.157 Y156.61 E51.36361
G1 X122.864 Y156.57 E51.37443
G1 X122.592 Y156.454 E51.38525
G1 X122.379 Y156.288 E51.39513
G1 X122.25 Y156.159 E51.4018
G1 X122.071 Y155.923 E51.41264
G1 X121.961 Y155.648 E51.42347
G1 X121.928 Y155.381 E51.43332
G1 X121.929 Y149.913 E51.63337
G1 X121.969 Y149.62 E51.64419
G1 X122.057 Y149.412 E51.65245
G1 X121.961 Y149.171 E51.66194
G1 X121.928 Y148.904 E51.67179
G1 X121.928 Y144.844 E51.82033
G1 X121.968 Y144.551 E51.83115
G1 X122.084 Y144.279 E51.84196
G1 X122.25 Y144.066 E51.85184
G1 X122.379 Y143.937 E51.85852
G0 F6000 X122.69 Y144.248
G1 F1200 X122.878 Y144.117 E51.8669
G1 X123.157 Y144.055 E51.87736
G1 X126.735 Y144.055 E52.00826
G1 X126.697 Y143.951 E52.01231
G1 X126.687 Y143.835 E52.01657
G1 X126.689 Y140.68 E52.132
G1 X126.772 Y140.359 E52.14413
G1 X126.827 Y140.26 E52.14828
G1 X127.051 Y140.024 E52.16018
G1 X127.338 Y139.842 E52.17262
G1 X127.639 Y139.741 E52.18423
G1 X128.477 Y139.675 E52.21499
G1 X128.705 Y139.697 E52.22337
G1 X128.912 Y139.795 E52.23174
G1 X129.059 Y139.94 E52.2393
G1 X129.479 Y140.506 E52.26509
G1 X129.937 Y139.933 E52.29192
G1 X130.109 Y139.781 E52.30032
G1 X130.322 Y139.698 E52.30868
G1 X130.489 Y139.686 E52.31481
G1 X131.352 Y139.735 E52.34643
G1 X131.671 Y139.838 E52.3587
G1 X131.963 Y140.025 E52.37139
G1 X132.173 Y140.242 E52.38243
G1 X132.228 Y140.334 E52.38636
G1 X132.31 Y140.548 E52.39474
G1 X132.322 Y140.673 E52.39933
G1 X132.32 Y143.835 E52.51502
G1 X132.281 Y144.055 E52.52319
G1 X135.853 Y144.055 E52.65388
G1 X136.078 Y144.095 E52.66224
G1 X136.32 Y144.248 E52.67272
G1 X136.449 Y144.377 E52.67939
G1 X136.58 Y144.565 E52.68777
G1 X136.642 Y144.844 E52.69823
G1 X136.642 Y148.904 E52.84677
G1 X136.602 Y149.129 E52.85513
G1 X136.449 Y149.371 E52.86561
G1 X136.409 Y149.411 E52.86768
G1 X136.553 Y149.582 E52.87585
G1 X136.632 Y149.797 E52.88423
G1 X136.642 Y149.913 E52.88849
G1 X136.642 Y155.381 E53.08855
G1 X136.602 Y155.606 E53.09691
G1 X136.449 Y155.848 E53.10738
G1 X136.32 Y155.977 E53.11406
G1 X136.132 Y156.108 E53.12244
G1 X135.853 Y156.17 E53.1329
G1 X131.142 Y156.17 E53.30525
G1 X130.917 Y156.13 E53.31362
G1 X130.718 Y156.016 E53.32201
G1 X130.571 Y155.841 E53.33037
G1 X130.555 Y155.797 E53.33208
G1 X130.373 Y155.93 E53.34033
G1 X130.166 Y156.031 E53.34875
G1 X129.795 Y156.138 E53.36288
G1 X129.559 Y156.162 E53.37156
G1 X129.176 Y156.131 E53.38562
G1 X128.948 Y156.07 E53.39425
G1 X128.597 Y155.905 E53.40844
G1 X128.452 Y155.801 E53.41497
G1 X128.432 Y155.853 E53.41701
G1 X128.281 Y156.025 E53.42538
G1 X128.08 Y156.135 E53.43377
G1 X127.868 Y156.17 E53.44163
G1 X123.157 Y156.17 E53.61399
G1 X122.932 Y156.13 E53.62235
G1 X122.69 Y155.977 E53.63282
G1 X122.561 Y155.848 E53.6395
G1 X122.43 Y155.66 E53.64788
G1 X122.368 Y155.381 E53.65834
G1 X122.369 Y149.913 E53.85839
G1 X122.409 Y149.687 E53.86679
G1 X122.523 Y149.489 E53.87515
G1 X122.608 Y149.418 E53.8792
G1 X122.561 Y149.371 E53.88163
G1 X122.43 Y149.183 E53.89001
G1 X122.368 Y148.904 E53.90047
G1 X122.368 Y144.844 E54.04901
G1 X122.408 Y144.619 E54.05737
G1 X122.561 Y144.377 E54.06784
G1 X122.69 Y144.248 E54.07452
G0 F6000 X123.001 Y144.559
G1 F1200 X123.157 Y144.495 E54.08069
G1 X135.853 Y144.495 E54.54519
G1 X136.009 Y144.559 E54.55135
G1 X136.138 Y144.688 E54.55803
G1 X136.202 Y144.844 E54.5642
G1 X136.202 Y148.904 E54.71274
G1 X136.138 Y149.06 E54.71891
G1 X136.009 Y149.189 E54.72558
G1 X135.853 Y149.253 E54.73175
G1 X123.157 Y149.253 E55.19625
G1 X123.001 Y149.189 E55.20242
G1 X122.872 Y149.06 E55.20909
G1 X122.808 Y148.904 E55.21526
G1 X122.808 Y144.844 E55.3638
G1 X122.872 Y144.688 E55.36997
G1 X123.001 Y144.559 E55.37664
G1 F2700 E50.37664
G1 F600 Z0.4
G0 F6000 X122.848 Y149.788 Z0.4
G1 F600 Z0.2
G1 F2700 E55.37664
G1 F1200 X122.952 Y149.707 E55.38147
G1 X123.029 Y149.693 E55.38433
G1 X135.982 Y149.693 E55.85823
G1 X136.107 Y149.732 E55.86302
G1 X136.188 Y149.835 E55.86782
G1 X136.202 Y149.913 E55.87072
G1 X136.202 Y155.381 E56.07077
G1 X136.138 Y155.537 E56.07694
G1 X136.009 Y155.666 E56.08361
G1 X135.853 Y155.73 E56.08978
G1 X131.142 Y155.73 E56.26214
G1 X131.017 Y155.691 E56.26693
G1 X130.936 Y155.588 E56.27172
G1 X130.948 Y155.406 E56.2784
G1 X131.115 Y155.095 E56.29131
G1 X131.207 Y154.802 E56.30255
G1 X131.245 Y154.495 E56.31386
G1 X131.229 Y154.18 E56.3254
G1 X131.154 Y153.872 E56.337
G1 X131.032 Y153.591 E56.34821
G1 X130.856 Y153.332 E56.35967
G1 X130.644 Y153.114 E56.37079
G1 X130.383 Y152.927 E56.38254
G1 X130.1 Y152.793 E56.39399
G1 X129.799 Y152.714 E56.40538
G1 X129.492 Y152.689 E56.41665
G1 X129.179 Y152.72 E56.42816
G1 X128.876 Y152.807 E56.43969
G1 X128.602 Y152.942 E56.45087
G1 X128.346 Y153.132 E56.46253
G1 X128.132 Y153.36 E56.47397
G1 X127.965 Y153.617 E56.48518
G1 X127.846 Y153.902 E56.49648
G1 X127.777 Y154.219 E56.50835
G1 X127.768 Y154.523 E56.51948
G1 X127.812 Y154.836 E56.53104
G1 X127.909 Y155.126 E56.54223
G1 X128.061 Y155.405 E56.55386
G1 X128.087 Y155.533 E56.55863
G1 X128.035 Y155.654 E56.56345
G1 X127.868 Y155.73 E56.57017
G1 X123.157 Y155.73 E56.74252
G1 X123.001 Y155.666 E56.74869
G1 X122.872 Y155.537 E56.75537
G1 X122.808 Y155.381 E56.76154
G1 X122.809 Y149.913 E56.96159
G1 X122.848 Y149.788 E56.96638
G0 F6000 X123.249 Y150.133
G1 F1200 X135.762 Y150.133 E57.42418
G1 X135.762 Y155.289 E57.61282
G1 X135.761 Y155.29 E57.61287
G1 X131.51 Y155.29 E57.7684
G1 X131.513 Y155.284 E57.76864
G1 X131.528 Y155.248 E57.77007
G1 X131.632 Y154.916 E57.7828
G1 X131.64 Y154.878 E57.78422
G1 X131.684 Y154.53 E57.79705
G1 X131.686 Y154.491 E57.79848
G1 X131.668 Y154.139 E57.81138
G1 X131.662 Y154.098 E57.81289
G1 X131.577 Y153.75 E57.826
G1 X131.565 Y153.714 E57.82739
G1 X131.428 Y153.399 E57.83996
G1 X131.408 Y153.364 E57.84143
G1 X131.209 Y153.07 E57.85442
G1 X131.185 Y153.04 E57.85583
G1 X130.944 Y152.792 E57.86848
G1 X130.914 Y152.766 E57.86993
G1 X130.622 Y152.556 E57.88309
G1 X130.588 Y152.536 E57.88453
G1 X130.271 Y152.387 E57.89735
G1 X130.233 Y152.373 E57.89883
G1 X129.894 Y152.284 E57.91165
G1 X129.856 Y152.278 E57.91306
G1 X129.506 Y152.249 E57.92591
G1 X129.466 Y152.249 E57.92737
G1 X129.115 Y152.284 E57.94028
